G90
; Auto-pressurize syringe
G1 B0.2 F400

;FLAVOR:Marlin
;TIME:13228
;Filament used: 0.259777m, 0m
;Layer height: 0.1
;MINX:-25.884
;MINY:-23.464
;MINZ:0.3
;MAXX:25.886
;MAXY:23.462
;MAXZ:3.5
;TARGET_MACHINE.NAME:Unknown
;Generated with Cura_SteamEngine 5.6.0
T0

G92 E0
G92 E0
G1 F1500 E-10
;LAYER_COUNT:33
;LAYER:0
M107
G0 X-7.341 Y-20.188 Z0.3 F150.0
;TYPE:SKIRT
G1 F1500 E0
G1 X-6.342 Y-21.416 B0.003 F150.0
G1 X-4.6 Y-22.65 B0.006
G1 X-3.957 Y-22.964 B0.007
G1 X-1.894 Y-23.464 B0.011
G1 X1.624 Y-23.422 B0.017
G1 X3.257 Y-23.18 B0.02
G1 X5.367 Y-22.204 B0.023
G1 X5.888 Y-21.833 B0.024
G1 X7.334 Y-20.317 B0.028
G1 X25.155 Y10.548 B0.087
G1 X25.786 Y12.469 B0.091
G1 X25.886 Y14.709 B0.094
G1 X25.33 Y16.755 B0.098
G1 X23.719 Y19.829 B0.104
G1 X22.628 Y21.331 B0.107
G1 X20.663 Y22.623 B0.111
G1 X19.645 Y23.105 B0.113
G1 X17.845 Y23.462 B0.116
G1 X-18.131 Y23.378 B0.176
G1 X-19.723 Y23.1 B0.178
G1 X-22.058 Y21.839 B0.183
G1 X-23.714 Y20.002 B0.187
G1 X-25.355 Y16.55 B0.193
G1 X-25.745 Y15.309 B0.195
G1 X-25.884 Y13.239 B0.199
G1 X-25.352 Y10.881 B0.203
G1 X-7.341 Y-20.188 B0.263
G0 X-6.995 Y-19.987
G1 X-6.068 Y-21.119 B0.265
G1 X-4.425 Y-22.29 B0.269
G1 X-3.82 Y-22.585 B0.27
G1 X-1.848 Y-23.063 B0.273
G1 X1.565 Y-23.026 B0.279
G1 X3.143 Y-22.792 B0.281
G1 X5.165 Y-21.857 B0.285
G1 X5.627 Y-21.528 B0.286
G1 X7.012 Y-20.076 B0.289
G1 X24.787 Y10.71 B0.349
G1 X25.388 Y12.54 B0.352
G1 X25.483 Y14.666 B0.355
G1 X24.955 Y16.611 B0.359
G1 X23.395 Y19.594 B0.364
G1 X22.347 Y21.037 B0.367
G1 X20.492 Y22.261 B0.371
G1 X19.516 Y22.723 B0.373
G1 X17.808 Y23.062 B0.376
G1 X-18.062 Y22.984 B0.435
G1 X-19.59 Y22.717 B0.438
G1 X-21.807 Y21.52 B0.442
G1 X-23.378 Y19.777 B0.446
G1 X-24.973 Y16.43 B0.452
G1 X-25.349 Y15.233 B0.454
G1 X-25.481 Y13.27 B0.458
G1 X-24.976 Y11.03 B0.461
G1 X-6.995 Y-19.987 B0.521
G0 X-6.649 Y-19.786
G1 X-5.793 Y-20.824 B0.523
G1 X-4.193 Y-21.964 B0.527
G1 X-3.685 Y-22.206 B0.528
G1 X-1.802 Y-22.662 B0.531
G1 X1.506 Y-22.63 B0.536
G1 X3.029 Y-22.404 B0.539
G1 X4.963 Y-21.51 B0.543
G1 X5.363 Y-21.225 B0.543
G1 X6.691 Y-19.832 B0.547
G1 X24.419 Y10.872 B0.606
G1 X24.99 Y12.611 B0.609
G1 X25.08 Y14.623 B0.612
G1 X24.581 Y16.463 B0.615
G1 X23.071 Y19.359 B0.621
G1 X22.065 Y20.744 B0.623
G1 X20.321 Y21.899 B0.627
G1 X19.387 Y22.341 B0.629
G1 X17.771 Y22.662 B0.631
G1 X-17.993 Y22.59 B0.691
G1 X-19.457 Y22.334 B0.694
G1 X-21.556 Y21.201 B0.697
G1 X-23.042 Y19.552 B0.701
G1 X-24.591 Y16.31 B0.707
G1 X-24.953 Y15.157 B0.709
G1 X-25.078 Y13.301 B0.712
G1 X-24.6 Y11.179 B0.716
G1 X-6.649 Y-19.786 B0.776
G0 X-6.34 Y-19.531
G1 X-5.516 Y-20.53 B0.778
G1 X-3.961 Y-21.638 B0.781
G1 X-3.591 Y-21.817 B0.782
G1 X-1.755 Y-22.262 B0.785
G1 X1.447 Y-22.234 B0.79
G1 X2.915 Y-22.016 B0.793
G1 X4.795 Y-21.147 B0.796
G1 X5.074 Y-20.949 B0.797
G1 X6.369 Y-19.591 B0.8
G1 X24.051 Y11.034 B0.859
G1 X24.592 Y12.682 B0.861
G1 X24.677 Y14.58 B0.865
G1 X24.206 Y16.317 B0.868
G1 X22.747 Y19.124 B0.873
G1 X21.784 Y20.45 B0.876
G1 X20.15 Y21.537 B0.879
G1 X19.258 Y21.959 B0.881
G1 X17.734 Y22.262 B0.883
G1 X-17.924 Y22.196 B0.943
G1 X-19.324 Y21.951 B0.945
G1 X-21.305 Y20.882 B0.949
G1 X-22.705 Y19.328 B0.952
G1 X-24.209 Y16.19 B0.958
G1 X-24.557 Y15.081 B0.96
G1 X-24.675 Y13.332 B0.963
G1 X-24.224 Y11.328 B0.966
G1 X-6.34 Y-19.531 B1.026
G0 X-6.031 Y-19.276
G1 X-5.239 Y-20.236 B1.028
G1 X-3.729 Y-21.312 B1.031
G1 X-3.454 Y-21.438 B1.031
G1 X-1.708 Y-21.862 B1.034
G1 X1.388 Y-21.838 B1.039
G1 X2.802 Y-21.628 B1.042
G1 X4.573 Y-20.814 B1.045
G1 X4.785 Y-20.673 B1.045
G1 X6.047 Y-19.35 B1.049
G1 X23.683 Y11.196 B1.107
G1 X24.194 Y12.753 B1.11
G1 X24.274 Y14.537 B1.113
G1 X23.831 Y16.172 B1.116
G1 X22.423 Y18.889 B1.121
G1 X21.502 Y20.157 B1.124
G1 X19.979 Y21.175 B1.127
G1 X19.129 Y21.577 B1.128
G1 X17.697 Y21.862 B1.131
G1 X-17.855 Y21.802 B1.19
G1 X-19.191 Y21.568 B1.192
G1 X-21.054 Y20.563 B1.196
G1 X-22.369 Y19.104 B1.199
G1 X-23.827 Y16.07 B1.204
G1 X-24.161 Y15.005 B1.206
G1 X-24.272 Y13.363 B1.209
G1 X-23.848 Y11.477 B1.212
G1 X-6.031 Y-19.276 B1.272
G0 X-5.685 Y-19.075
G1 X-4.965 Y-19.94 B1.273
G1 X-3.497 Y-20.986 B1.276
G1 X-3.36 Y-21.049 B1.277
G1 X-1.661 Y-21.462 B1.28
G1 X1.385 Y-21.438 B1.285
G1 X2.687 Y-21.241 B1.287
G1 X4.406 Y-20.451 B1.29
G1 X4.528 Y-20.364 B1.29
G1 X5.725 Y-19.109 B1.293
G1 X23.315 Y11.358 B1.352
G1 X23.796 Y12.824 B1.354
G1 X23.871 Y14.494 B1.357
G1 X23.456 Y16.027 B1.36
G1 X22.099 Y18.654 B1.365
G1 X21.22 Y19.864 B1.367
G1 X19.757 Y20.842 B1.37
G1 X19.003 Y21.194 B1.371
G1 X17.659 Y21.462 B1.374
G1 X-17.786 Y21.408 B1.433
G1 X-19.058 Y21.185 B1.435
G1 X-20.803 Y20.244 B1.438
G1 X-22.034 Y18.878 B1.441
G1 X-23.445 Y15.95 B1.447
G1 X-23.765 Y14.929 B1.449
G1 X-23.869 Y13.394 B1.451
G1 X-23.472 Y11.626 B1.454
G1 X-5.685 Y-19.075 B1.513
G0 X-5.378 Y-18.819
G1 X-4.692 Y-19.643 B1.515
G1 X-3.265 Y-20.66 B1.518
G1 X-1.613 Y-21.062 B1.521
G1 X1.325 Y-21.042 B1.526
G1 X2.575 Y-20.853 B1.528
G1 X4.239 Y-20.088 B1.531
G1 X5.403 Y-18.868 B1.534
G1 X22.947 Y11.52 B1.592
G1 X23.398 Y12.895 B1.594
G1 X23.468 Y14.452 B1.597
G1 X23.082 Y15.879 B1.6
G1 X21.775 Y18.419 B1.604
G1 X20.938 Y19.571 B1.607
G1 X19.535 Y20.509 B1.609
G1 X18.878 Y20.811 B1.611
G1 X17.621 Y21.062 B1.613
G1 X-17.717 Y21.014 B1.672
G1 X-18.925 Y20.802 B1.674
G1 X-20.552 Y19.925 B1.677
G1 X-21.699 Y18.652 B1.68
G1 X-23.063 Y15.83 B1.685
G1 X-23.369 Y14.853 B1.687
G1 X-23.466 Y13.425 B1.689
G1 X-23.095 Y11.773 B1.692
G1 X-5.378 Y-18.819 B1.751
G0 X-5.071 Y-18.563
G1 X-4.419 Y-19.346 B1.752
G1 X-3.096 Y-20.289 B1.755
G1 X-1.565 Y-20.662 B1.758
G1 X1.265 Y-20.646 B1.762
G1 X2.463 Y-20.465 B1.764
G1 X4.003 Y-19.757 B1.767
G1 X5.081 Y-18.627 B1.77
G1 X22.579 Y11.682 B1.828
G1 X23.0 Y12.966 B1.83
G1 X23.065 Y14.41 B1.833
G1 X22.707 Y15.733 B1.835
G1 X21.451 Y18.184 B1.84
G1 X20.656 Y19.278 B1.842
G1 X19.313 Y20.176 B1.845
G1 X18.752 Y20.429 B1.846
G1 X17.583 Y20.662 B1.848
G1 X-17.648 Y20.62 B1.906
G1 X-18.792 Y20.419 B1.908
G1 X-20.301 Y19.606 B1.911
G1 X-21.363 Y18.427 B1.914
G1 X-22.681 Y15.711 B1.919
G1 X-22.973 Y14.778 B1.92
G1 X-23.063 Y13.455 B1.923
G1 X-22.719 Y11.92 B1.925
G1 X-5.071 Y-18.563 B1.984
G0 X-4.764 Y-18.307
G1 X-4.146 Y-19.049 B1.986
G1 X-2.927 Y-19.918 B1.988
G1 X-1.516 Y-20.262 B1.99
G1 X1.205 Y-20.25 B1.995
G1 X2.351 Y-20.077 B1.997
G1 X3.765 Y-19.427 B2.0
G1 X4.76 Y-18.383 B2.002
G1 X22.211 Y11.844 B2.06
G1 X22.602 Y13.037 B2.062
G1 X22.662 Y14.368 B2.064
G1 X22.332 Y15.588 B2.067
G1 X21.127 Y17.949 B2.071
G1 X20.375 Y18.984 B2.073
G1 X19.148 Y19.811 B2.076
G1 X18.625 Y20.047 B2.076
G1 X17.545 Y20.262 B2.078
G1 X-17.579 Y20.226 B2.137
G1 X-18.659 Y20.036 B2.139
G1 X-20.05 Y19.287 B2.141
G1 X-21.027 Y18.202 B2.144
G1 X-22.299 Y15.592 B2.149
G1 X-22.577 Y14.703 B2.15
G1 X-22.66 Y13.485 B2.152
G1 X-22.342 Y12.067 B2.155
G1 X-4.764 Y-18.307 B2.213
G0 X-4.457 Y-18.051
G1 X-3.873 Y-18.752 B2.215
G1 X-2.758 Y-19.547 B2.217
G1 X-1.467 Y-19.862 B2.219
G1 X1.145 Y-19.854 B2.223
G1 X2.239 Y-19.689 B2.225
G1 X3.528 Y-19.096 B2.228
G1 X4.438 Y-18.142 B2.23
G1 X21.843 Y12.006 B2.288
G1 X22.204 Y13.108 B2.29
G1 X22.259 Y14.326 B2.292
G1 X21.958 Y15.441 B2.294
G1 X20.803 Y17.714 B2.298
G1 X20.093 Y18.692 B2.3
G1 X18.983 Y19.446 B2.302
G1 X18.498 Y19.665 B2.303
G1 X17.507 Y19.862 B2.305
G1 X-17.51 Y19.832 B2.363
G1 X-18.526 Y19.653 B2.365
G1 X-19.799 Y18.968 B2.367
G1 X-20.693 Y17.976 B2.369
G1 X-21.917 Y15.473 B2.374
G1 X-22.181 Y14.628 B2.376
G1 X-22.257 Y13.515 B2.377
G1 X-21.965 Y12.214 B2.38
G1 X-4.457 Y-18.051 B2.438
G0 X-4.15 Y-17.795
G1 X-3.6 Y-18.455 B2.439
G1 X-2.589 Y-19.176 B2.441
G1 X-1.418 Y-19.462 B2.443
G1 X1.085 Y-19.458 B2.448
G1 X2.127 Y-19.301 B2.449
G1 X3.29 Y-18.766 B2.451
G1 X4.117 Y-17.898 B2.453
G1 X21.476 Y12.169 B2.511
G1 X21.806 Y13.178 B2.513
G1 X21.856 Y14.284 B2.515
G1 X21.583 Y15.294 B2.517
G1 X20.446 Y17.533 B2.521
G1 X19.81 Y18.401 B2.523
G1 X18.818 Y19.081 B2.525
G1 X18.371 Y19.283 B2.525
G1 X17.469 Y19.462 B2.527
G1 X-17.51 Y19.432 B2.585
G1 X-18.392 Y19.271 B2.587
G1 X-19.548 Y18.649 B2.589
G1 X-20.359 Y17.749 B2.591
G1 X-21.535 Y15.354 B2.595
G1 X-21.785 Y14.553 B2.597
G1 X-21.854 Y13.545 B2.598
G1 X-21.588 Y12.361 B2.6
G1 X-4.15 Y-17.795 B2.659
G0 X-3.843 Y-17.539
G1 X-3.327 Y-18.158 B2.66
G1 X-2.42 Y-18.805 B2.662
G1 X-1.368 Y-19.062 B2.664
G1 X1.025 Y-19.062 B2.668
G1 X2.015 Y-18.913 B2.669
G1 X3.053 Y-18.435 B2.671
G1 X3.795 Y-17.657 B2.673
G1 X21.109 Y12.332 B2.731
G1 X21.408 Y13.248 B2.732
G1 X21.453 Y14.242 B2.734
G1 X21.208 Y15.15 B2.735
G1 X20.123 Y17.297 B2.739
G1 X19.527 Y18.11 B2.741
G1 X18.643 Y18.721 B2.743
G1 X18.293 Y18.891 B2.744
G1 X17.431 Y19.062 B2.745
G1 X-17.438 Y19.038 B2.803
G1 X-18.26 Y18.888 B2.804
G1 X-19.297 Y18.33 B2.806
G1 X-20.024 Y17.523 B2.808
G1 X-21.153 Y15.235 B2.812
G1 X-21.389 Y14.478 B2.814
G1 X-21.451 Y13.575 B2.815
G1 X-21.212 Y12.508 B2.817
G1 X-3.843 Y-17.539 B2.875
G0 X-3.497 Y-17.339
G1 X-3.055 Y-17.861 B2.876
G1 X-2.251 Y-18.434 B2.878
G1 X-1.318 Y-18.662 B2.879
G1 X1.025 Y-18.662 B2.883
G1 X1.9 Y-18.526 B2.885
G1 X2.815 Y-18.105 B2.886
G1 X3.474 Y-17.413 B2.888
G1 X20.742 Y12.495 B2.946
G1 X21.01 Y13.318 B2.947
G1 X21.05 Y14.2 B2.948
G1 X20.833 Y15.006 B2.95
G1 X19.8 Y17.061 B2.954
G1 X19.244 Y17.82 B2.955
G1 X18.416 Y18.392 B2.957
G1 X18.164 Y18.509 B2.957
G1 X17.393 Y18.662 B2.959
G1 X-17.366 Y18.644 B3.017
G1 X-18.128 Y18.505 B3.018
G1 X-19.046 Y18.011 B3.02
G1 X-19.689 Y17.297 B3.021
G1 X-20.794 Y15.058 B3.025
G1 X-20.993 Y14.403 B3.027
G1 X-21.048 Y13.605 B3.028
G1 X-20.835 Y12.655 B3.029
G1 X-3.497 Y-17.339 B3.087
G0 X-3.192 Y-17.08
G1 X-2.782 Y-17.564 B3.088
G1 X-2.082 Y-18.063 B3.09
G1 X-1.268 Y-18.262 B3.091
G1 X1.025 Y-18.262 B3.095
G1 X1.785 Y-18.139 B3.096
G1 X2.578 Y-17.774 B3.098
G1 X3.152 Y-17.172 B3.099
G1 X20.375 Y12.658 B3.156
G1 X20.612 Y13.388 B3.158
G1 X20.647 Y14.158 B3.159
G1 X20.458 Y14.861 B3.16
G1 X19.477 Y16.825 B3.164
G1 X18.961 Y17.53 B3.165
G1 X18.189 Y18.063 B3.167
G1 X18.04 Y18.126 B3.167
G1 X17.355 Y18.262 B3.168
G1 X-17.294 Y18.25 B3.226
G1 X-17.996 Y18.122 B3.227
G1 X-18.795 Y17.692 B3.229
G1 X-19.355 Y17.07 B3.23
G1 X-20.411 Y14.942 B3.234
G1 X-20.597 Y14.329 B3.235
G1 X-20.645 Y13.635 B3.236
G1 X-20.458 Y12.802 B3.238
G1 X-3.192 Y-17.08 B3.295
G0 X-2.887 Y-16.821
G1 X-2.509 Y-17.267 B3.296
G1 X-1.913 Y-17.692 B3.297
G1 X-1.218 Y-17.862 B3.299
G1 X1.025 Y-17.862 B3.302
G1 X1.668 Y-17.753 B3.303
G1 X2.341 Y-17.443 B3.305
G1 X2.83 Y-16.931 B3.306
G1 X20.006 Y12.818 B3.363
G1 X20.214 Y13.46 B3.364
G1 X20.244 Y14.116 B3.365
G1 X20.083 Y14.716 B3.366
G1 X19.119 Y16.646 B3.37
G1 X18.679 Y17.239 B3.371
G1 X17.962 Y17.734 B3.373
G1 X17.317 Y17.862 B3.374
G1 X-17.222 Y17.856 B3.431
G1 X-17.864 Y17.739 B3.432
G1 X-18.544 Y17.373 B3.434
G1 X-19.021 Y16.844 B3.435
G1 X-20.028 Y14.826 B3.439
G1 X-20.201 Y14.255 B3.44
G1 X-20.242 Y13.665 B3.441
G1 X-20.081 Y12.949 B3.442
G1 X-2.887 Y-16.821 B3.499
G0 X-2.582 Y-16.562
G1 X-2.236 Y-16.97 B3.5
G1 X-1.744 Y-17.321 B3.501
G1 X-1.168 Y-17.462 B3.502
G1 X1.025 Y-17.462 B3.506
G1 X1.552 Y-17.367 B3.506
G1 X2.103 Y-17.113 B3.507
G1 X2.509 Y-16.687 B3.508
G1 X19.637 Y12.978 B3.566
G1 X19.816 Y13.532 B3.566
G1 X19.841 Y14.074 B3.567
G1 X19.725 Y14.537 B3.568
G1 X18.761 Y16.467 B3.572
G1 X18.397 Y16.948 B3.573
G1 X17.803 Y17.358 B3.574
G1 X17.317 Y17.462 B3.575
G1 X-17.15 Y17.462 B3.632
G1 X-17.732 Y17.356 B3.633
G1 X-18.293 Y17.054 B3.634
G1 X-18.687 Y16.617 B3.635
G1 X-19.67 Y14.647 B3.639
G1 X-19.817 Y14.143 B3.64
G1 X-19.852 Y13.753 B3.64
G1 X-19.704 Y13.096 B3.642
G1 X-2.582 Y-16.562 B3.699
G0 X-2.236 Y-16.362
G1 X-1.935 Y-16.707 B3.699
G1 X-1.575 Y-16.951 B3.7
G1 X-1.168 Y-17.062 B3.701
G1 X1.025 Y-17.062 B3.704
G1 X1.475 Y-16.974 B3.705
G1 X1.867 Y-16.782 B3.706
G1 X2.163 Y-16.487 B3.707
G1 X19.27 Y13.142 B3.764
G1 X19.417 Y13.564 B3.764
G1 X19.451 Y13.986 B3.765
G1 X19.367 Y14.358 B3.766
G1 X18.403 Y16.288 B3.769
G1 X18.117 Y16.656 B3.77
G1 X17.642 Y16.984 B3.771
G1 X17.317 Y17.062 B3.772
G1 X-17.15 Y17.062 B3.829
G1 X-17.603 Y16.973 B3.83
G1 X-18.004 Y16.778 B3.831
G1 X-18.329 Y16.438 B3.831
G1 X-19.312 Y14.468 B3.835
G1 X-19.432 Y14.036 B3.836
G1 X-19.448 Y13.779 B3.836
G1 X-19.328 Y13.243 B3.837
G1 X-2.236 Y-16.362 B3.894
G0 X-1.89 Y-16.162
G1 X-1.639 Y-16.438 B3.895
G1 X-1.362 Y-16.612 B3.895
G1 X-1.168 Y-16.662 B3.896
G1 X1.025 Y-16.662 B3.899
G1 X1.39 Y-16.583 B3.9
G1 X1.678 Y-16.429 B3.9
G1 X1.817 Y-16.287 B3.901
G1 X18.924 Y13.342 B3.958
G1 X19.037 Y13.688 B3.958
G1 X19.051 Y14.004 B3.959
G1 X19.009 Y14.179 B3.959
G1 X18.045 Y16.109 B3.963
G1 X17.806 Y16.405 B3.963
G1 X17.531 Y16.6 B3.964
G1 X17.317 Y16.662 B3.964
G1 X-17.15 Y16.662 B4.022
G1 X-17.518 Y16.582 B4.022
G1 X-17.817 Y16.424 B4.023
G1 X-17.971 Y16.259 B4.023
G1 X-18.954 Y14.289 B4.027
G1 X-19.045 Y13.936 B4.028
G1 X-19.048 Y13.772 B4.028
G1 X-18.951 Y13.389 B4.028
G1 X-1.89 Y-16.162 B4.085
G0 X-1.198 Y-15.762
G1 X-1.086 Y-15.862 B4.086
G1 X1.025 Y-15.862 B4.089
G1 X1.167 Y-15.815 B4.089
G1 X18.232 Y13.742 B4.146
G1 X18.262 Y13.883 B4.146
G1 X17.329 Y15.751 B4.15
G1 X17.219 Y15.862 B4.15
G1 X-17.15 Y15.862 B4.207
G1 X-17.298 Y15.814 B4.208
G1 X-18.238 Y13.931 B4.211
G1 X-18.259 Y13.789 B4.211
G1 X-1.198 Y-15.762 B4.268
G0 X-1.544 Y-15.962
G1 X-1.352 Y-16.16 B4.269
G1 X-1.168 Y-16.262 B4.269
G1 X1.025 Y-16.262 B4.273
G1 X1.293 Y-16.195 B4.273
G1 X1.471 Y-16.087 B4.274
G1 X18.578 Y13.542 B4.331
G1 X18.653 Y13.8 B4.331
G1 X18.651 Y14.0 B4.331
G1 X17.687 Y15.93 B4.335
G1 X17.503 Y16.144 B4.335
G1 X17.317 Y16.262 B4.336
G1 X-17.15 Y16.262 B4.393
G1 X-17.421 Y16.194 B4.394
G1 X-17.613 Y16.08 B4.394
G1 X-18.596 Y14.11 B4.398
G1 X-18.655 Y13.848 B4.398
G1 X-18.605 Y13.589 B4.399
G1 X-1.544 Y-15.962 B4.455
G1 F1500 E37.79124
;MESH:Tri_v2_small.stl
G0 X0.783 Y-15.245 F150.0
G0 X17.052 Y13.872
G0 X17.377 Y13.865
;TYPE:WALL-INNER
G1 F1500 E47.79124
G1 X0.677 Y-15.061 B4.511 F150.0
G1 X-0.677 Y-15.061 B4.513
G1 X-17.377 Y13.865 B4.569
G1 X-16.779 Y15.062 B4.571
G1 X16.778 Y15.061 B4.627
G1 X17.377 Y13.865 B4.629
G0 X17.831 Y13.851
;TYPE:WALL-OUTER
G1 X0.908 Y-15.461 B4.686
G1 X-0.908 Y-15.461 B4.689
G1 X-17.831 Y13.851 B4.745
G1 X-17.026 Y15.462 B4.748
G1 X17.026 Y15.461 B4.805
G1 X17.831 Y13.851 B4.808
G0 X17.731 Y13.678
G0 X16.945 Y13.879
;TYPE:SKIN
G1 X16.544 Y14.68 B4.809
G1 X-16.544 Y14.682 B4.864
G1 X-16.945 Y13.879 B4.866
G1 X-0.457 Y-14.681 B4.921
G1 X0.457 Y-14.681 B4.922
G1 X16.945 Y13.879 B4.977
G0 X0.227 Y-14.48
G1 X0.495 Y-14.212 B4.978
G0 X-0.337 Y-14.48
G1 X1.268 Y-12.873 B4.982
G1 X1.338 Y-12.803 B4.982
G0 X2.04 Y-11.535
G1 X-0.547 Y-14.123 B4.988
G0 X-0.754 Y-13.765
G1 X2.813 Y-10.197 B4.996
G1 X2.883 Y-10.127 B4.997
G0 X3.586 Y-8.858
G1 X-0.96 Y-13.406 B5.007
G0 X-1.168 Y-13.047
G1 X4.359 Y-7.52 B5.02
G1 X4.429 Y-7.45 B5.021
G0 X5.131 Y-6.182
G1 X-1.375 Y-12.689 B5.036
G0 X-1.582 Y-12.33
G1 X5.904 Y-4.843 B5.054
G1 X5.974 Y-4.773 B5.054
G0 X6.677 Y-3.505
G1 X-1.789 Y-11.972 B5.074
G0 X-1.996 Y-11.613
G1 X7.449 Y-2.167 B5.096
G1 X7.519 Y-2.097 B5.096
G0 X8.222 Y-0.828
G1 X-2.203 Y-11.254 B5.121
G0 X-2.41 Y-10.895
G1 X8.995 Y0.509 B5.147
G1 X9.065 Y0.579 B5.148
G0 X9.767 Y1.848
G1 X-2.617 Y-10.537 B5.177
G0 X-2.824 Y-10.178
G1 X10.54 Y3.186 B5.208
G1 X10.61 Y3.256 B5.208
G0 X11.313 Y4.524
G1 X-3.032 Y-9.82 B5.242
G0 X-3.238 Y-9.461
G1 X12.085 Y5.863 B5.278
G1 X12.155 Y5.933 B5.279
G0 X12.858 Y7.201
G1 X-3.445 Y-9.102 B5.317
G0 X-3.652 Y-8.744
G1 X13.63 Y8.539 B5.358
G1 X13.7 Y8.609 B5.358
G0 X14.403 Y9.878
G1 X-3.86 Y-8.385 B5.401
G0 X-4.067 Y-8.027
G1 X15.176 Y11.216 B5.446
G1 X15.246 Y11.286 B5.446
G0 X15.948 Y12.554
G1 X-4.273 Y-7.667 B5.494
G0 X-4.48 Y-7.309
G1 X16.716 Y13.888 B5.544
G0 X16.527 Y14.265
G1 X-4.688 Y-6.95 B5.594
G0 X-4.895 Y-6.592
G1 X16.177 Y14.48 B5.644
G0 X15.611 Y14.48
G1 X-5.102 Y-6.233 B5.692
G0 X-5.309 Y-5.875
G1 X15.045 Y14.48 B5.74
G0 X14.48 Y14.48
G1 X-5.516 Y-5.516 B5.787
G0 X-5.723 Y-5.157
G1 X13.914 Y14.48 B5.834
G0 X13.348 Y14.48
G1 X-5.93 Y-4.799 B5.879
G0 X-6.137 Y-4.44
G1 X12.783 Y14.48 B5.924
G0 X12.217 Y14.48
G1 X-6.344 Y-4.082 B5.967
G0 X-6.551 Y-3.722
G1 X11.651 Y14.48 B6.01
G0 X11.086 Y14.48
G1 X-6.758 Y-3.364 B6.052
G0 X-6.965 Y-3.005
G1 X10.52 Y14.48 B6.094
G0 X9.954 Y14.48
G1 X-7.172 Y-2.647 B6.134
G0 X-7.38 Y-2.288
G1 X9.388 Y14.48 B6.173
G0 X8.823 Y14.48
G1 X-7.586 Y-1.929 B6.212
G0 X-7.793 Y-1.571
G1 X8.257 Y14.48 B6.25
G0 X7.691 Y14.48
G1 X-8.0 Y-1.212 B6.287
G0 X-8.208 Y-0.854
G1 X7.126 Y14.48 B6.323
G0 X6.56 Y14.48
G1 X-8.415 Y-0.495 B6.358
G0 X-8.622 Y-0.137
G1 X5.994 Y14.48 B6.393
G0 X5.429 Y14.48
G1 X-8.828 Y0.222 B6.426
G0 X-9.036 Y0.58
G1 X4.864 Y14.48 B6.459
G0 X4.298 Y14.48
G1 X-9.243 Y0.939 B6.491
G0 X-9.45 Y1.297
G1 X3.732 Y14.48 B6.522
G0 X3.167 Y14.48
G1 X-9.657 Y1.656 B6.552
G0 X-9.864 Y2.015
G1 X2.601 Y14.48 B6.582
G0 X2.035 Y14.48
G1 X-10.071 Y2.373 B6.61
G0 X-10.278 Y2.732
G1 X1.47 Y14.48 B6.638
G0 X0.904 Y14.48
G1 X-10.485 Y3.09 B6.665
G0 X-10.692 Y3.449
G1 X0.338 Y14.48 B6.691
G0 X-0.226 Y14.48
G1 X-10.899 Y3.808 B6.716
G0 X-11.106 Y4.166
G1 X-0.792 Y14.48 B6.74
G0 X-1.358 Y14.48
G1 X-11.313 Y4.525 B6.764
G0 X-11.52 Y4.883
G1 X-1.924 Y14.48 B6.786
G0 X-2.489 Y14.48
G1 X-11.728 Y5.242 B6.808
G0 X-11.935 Y5.6
G1 X-3.055 Y14.48 B6.829
G0 X-3.621 Y14.48
G1 X-12.141 Y5.96 B6.849
G0 X-12.348 Y6.318
G1 X-4.186 Y14.48 B6.868
G0 X-4.752 Y14.48
G1 X-12.556 Y6.677 B6.886
G0 X-12.763 Y7.035
G1 X-5.318 Y14.48 B6.904
G0 X-5.883 Y14.481
G1 X-12.97 Y7.394 B6.921
G0 X-13.176 Y7.753
G1 X-6.448 Y14.481 B6.937
G0 X-7.014 Y14.481
G1 X-13.384 Y8.111 B6.952
G0 X-13.591 Y8.47
G1 X-7.58 Y14.481 B6.966
G0 X-8.145 Y14.481
G1 X-13.798 Y8.828 B6.979
G0 X-14.005 Y9.187
G1 X-8.711 Y14.481 B6.992
G0 X-9.277 Y14.481
G1 X-14.212 Y9.546 B7.003
G0 X-14.419 Y9.905
G1 X-9.842 Y14.481 B7.014
G0 X-10.408 Y14.481
G1 X-14.626 Y10.263 B7.024
G0 X-14.833 Y10.622
G1 X-10.974 Y14.481 B7.033
G0 X-11.539 Y14.481
G1 X-15.04 Y10.98 B7.041
G0 X-15.248 Y11.339
G1 X-12.105 Y14.481 B7.049
G0 X-12.671 Y14.481
G1 X-15.454 Y11.698 B7.055
G0 X-15.661 Y12.056
G1 X-13.237 Y14.481 B7.061
G0 X-13.802 Y14.481
G1 X-15.868 Y12.415 B7.066
G0 X-16.076 Y12.773
G1 X-14.368 Y14.481 B7.07
G0 X-14.934 Y14.481
G1 X-16.283 Y13.132 B7.073
G0 X-16.489 Y13.491
G1 X-15.499 Y14.481 B7.075
G0 X-16.065 Y14.481
G1 X-16.696 Y13.85 B7.077
G1 X-16.766 Y13.78 B7.077
G0 X-16.67 Y13.836
;MESH:NONMESH
G0 X-16.67 Y13.836 Z0.4 F120.0
G0 X17.052 Y13.872 F150.0
G0 X17.377 Y13.865
;TIME_ELAPSED:1777.577171
;LAYER:1
;TYPE:WALL-INNER
;MESH:Tri_v2_small.stl
G1 X0.677 Y-15.061 B7.133 F225.0
G1 X-0.677 Y-15.061 B7.135
G1 X-17.377 Y13.865 B7.191
G1 X-16.779 Y15.062 B7.193
G1 X16.778 Y15.061 B7.249
G1 X17.377 Y13.865 B7.251
G0 X17.831 Y13.851
;TYPE:WALL-OUTER
G1 X0.908 Y-15.461 B7.307 F150.0
G1 X-0.908 Y-15.461 B7.31
G1 X-17.831 Y13.851 B7.367
G1 X-17.026 Y15.462 B7.37
G1 X17.026 Y15.461 B7.426
G1 X17.831 Y13.851 B7.429
G0 X17.731 Y13.678 F225.0
G0 X16.945 Y13.879
;TYPE:SKIN
G1 X16.544 Y14.68 B7.431 F150.0
G1 X-16.544 Y14.682 B7.486
G1 X-16.945 Y13.879 B7.488
G1 X-0.457 Y-14.681 B7.542
G1 X0.457 Y-14.681 B7.544
G1 X16.945 Y13.879 B7.599
G0 X16.066 Y14.48 F225.0
G1 X16.696 Y13.85 B7.6 F150.0
G0 X16.489 Y13.492 F225.0
G1 X15.5 Y14.48 B7.603 F150.0
G0 X14.934 Y14.48 F225.0
G1 X16.282 Y13.133 B7.606 F150.0
G0 X16.075 Y12.774 F225.0
G1 X14.369 Y14.48 B7.61 F150.0
G0 X13.803 Y14.48 F225.0
G1 X15.868 Y12.416 B7.615 F150.0
G0 X15.661 Y12.057 F225.0
G1 X13.237 Y14.48 B7.62 F150.0
G0 X12.672 Y14.48 F225.0
G1 X15.453 Y11.699 B7.627 F150.0
G0 X15.247 Y11.339 F225.0
G1 X12.106 Y14.48 B7.634 F150.0
G0 X11.54 Y14.48 F225.0
G1 X15.04 Y10.981 B7.643 F150.0
G0 X14.832 Y10.622 F225.0
G1 X10.975 Y14.48 B7.652 F150.0
G0 X10.409 Y14.48 F225.0
G1 X14.625 Y10.264 B7.662 F150.0
G0 X14.418 Y9.905 F225.0
G1 X9.843 Y14.48 B7.672 F150.0
G0 X9.277 Y14.48 F225.0
G1 X14.211 Y9.547 B7.684 F150.0
G0 X14.004 Y9.188 F225.0
G1 X8.712 Y14.48 B7.697 F150.0
G0 X8.146 Y14.48 F225.0
G1 X13.797 Y8.829 B7.71 F150.0
G0 X13.59 Y8.471 F225.0
G1 X7.58 Y14.48 B7.724 F150.0
G0 X7.015 Y14.48 F225.0
G1 X13.383 Y8.112 B7.739 F150.0
G0 X13.176 Y7.754 F225.0
G1 X6.449 Y14.48 B7.755 F150.0
G0 X5.883 Y14.48 F225.0
G1 X12.969 Y7.394 B7.772 F150.0
G0 X12.762 Y7.036 F225.0
G1 X5.317 Y14.481 B7.789 F150.0
G0 X4.751 Y14.481 F225.0
G1 X12.555 Y6.677 B7.808 F150.0
G0 X12.348 Y6.319 F225.0
G1 X4.186 Y14.481 B7.827 F150.0
G0 X3.62 Y14.481 F225.0
G1 X12.141 Y5.96 B7.847 F150.0
G0 X11.934 Y5.601 F225.0
G1 X3.054 Y14.481 B7.868 F150.0
G0 X2.489 Y14.481 F225.0
G1 X11.727 Y5.243 B7.89 F150.0
G0 X11.52 Y4.884 F225.0
G1 X1.923 Y14.481 B7.912 F150.0
G0 X1.357 Y14.481 F225.0
G1 X11.313 Y4.526 B7.936 F150.0
G0 X11.105 Y4.167 F225.0
G1 X0.791 Y14.481 B7.96 F150.0
G0 X0.226 Y14.481 F225.0
G1 X10.898 Y3.809 B7.985 F150.0
G0 X10.692 Y3.449 F225.0
G1 X-0.339 Y14.481 B8.011 F150.0
G0 X-0.905 Y14.481 F225.0
G1 X10.484 Y3.091 B8.038 F150.0
G0 X10.277 Y2.732 F225.0
G1 X-1.47 Y14.481 B8.066 F150.0
G0 X-2.036 Y14.481 F225.0
G1 X10.07 Y2.374 B8.094 F150.0
G0 X9.863 Y2.015 F225.0
G1 X-2.602 Y14.481 B8.123 F150.0
G0 X-3.167 Y14.481 F225.0
G1 X9.656 Y1.656 B8.154 F150.0
G0 X9.449 Y1.298 F225.0
G1 X-3.733 Y14.481 B8.185 F150.0
G0 X-4.299 Y14.481 F225.0
G1 X9.242 Y0.939 B8.217 F150.0
G0 X9.035 Y0.581 F225.0
G1 X-4.864 Y14.481 B8.249 F150.0
G0 X-5.43 Y14.481 F225.0
G1 X8.828 Y0.222 B8.283 F150.0
G0 X8.621 Y-0.136 F225.0
G1 X-5.996 Y14.482 B8.317 F150.0
G0 X-6.562 Y14.482 F225.0
G1 X8.414 Y-0.494 B8.353 F150.0
G0 X8.207 Y-0.853 F225.0
G1 X-7.128 Y14.482 B8.389 F150.0
G0 X-7.694 Y14.482 F225.0
G1 X8.0 Y-1.211 B8.426 F150.0
G0 X7.793 Y-1.57 F225.0
G1 X-8.259 Y14.482 B8.464 F150.0
G0 X-8.825 Y14.482 F225.0
G1 X7.585 Y-1.928 B8.502 F150.0
G0 X7.379 Y-2.288 F225.0
G1 X-9.391 Y14.482 B8.542 F150.0
G0 X-9.956 Y14.482 F225.0
G1 X7.172 Y-2.646 B8.582 F150.0
G0 X6.965 Y-3.005 F225.0
G1 X-10.522 Y14.482 B8.623 F150.0
G0 X-11.088 Y14.482 F225.0
G1 X6.757 Y-3.363 B8.665 F150.0
G0 X6.55 Y-3.722 F225.0
G1 X-11.653 Y14.482 B8.708 F150.0
G0 X-12.219 Y14.482 F225.0
G1 X6.344 Y-4.081 B8.752 F150.0
G0 X6.136 Y-4.439 F225.0
G1 X-12.785 Y14.482 B8.797 F150.0
G0 X-13.35 Y14.482 F225.0
G1 X5.929 Y-4.798 B8.842 F150.0
G0 X5.722 Y-5.156 F225.0
G1 X-13.916 Y14.482 B8.888 F150.0
G0 X-14.482 Y14.482 F225.0
G1 X5.515 Y-5.515 B8.935 F150.0
G0 X5.308 Y-5.874 F225.0
G1 X-15.047 Y14.482 B8.983 F150.0
G0 X-15.613 Y14.482 F225.0
G1 X5.101 Y-6.233 B9.032 F150.0
G0 X4.894 Y-6.591 F225.0
G1 X-16.179 Y14.482 B9.082 F150.0
G0 X-16.527 Y14.265 F225.0
G1 X4.687 Y-6.95 B9.132 F150.0
G0 X4.48 Y-7.308 F225.0
G1 X-16.716 Y13.887 B9.182 F150.0
G1 X-16.786 Y13.957 B9.182
G0 X-15.948 Y12.553 F225.0
G1 X4.273 Y-7.667 B9.23 F150.0
G0 X4.066 Y-8.026 F225.0
G1 X-15.175 Y11.216 B9.275 F150.0
G1 X-15.245 Y11.286 B9.275
G0 X-14.403 Y9.877 F225.0
G1 X3.859 Y-8.384 B9.318 F150.0
G0 X3.652 Y-8.743 F225.0
G1 X-13.63 Y8.539 B9.359 F150.0
G1 X-13.7 Y8.609 B9.359
G0 X-12.857 Y7.2 F225.0
G1 X3.445 Y-9.101 B9.397 F150.0
G0 X3.237 Y-9.46 F225.0
G1 X-12.085 Y5.862 B9.433 F150.0
G1 X-12.155 Y5.932 B9.434
G0 X-11.312 Y4.524 F225.0
G1 X3.031 Y-9.819 B9.467 F150.0
G0 X2.824 Y-10.178 F225.0
G1 X-10.539 Y3.185 B9.499 F150.0
G1 X-10.609 Y3.255 B9.499
G0 X-9.767 Y1.847 F225.0
G1 X2.617 Y-10.536 B9.528 F150.0
G0 X2.409 Y-10.895 F225.0
G1 X-8.994 Y0.509 B9.555 F150.0
G1 X-9.064 Y0.579 B9.555
G0 X-8.221 Y-0.829 F225.0
G1 X2.202 Y-11.253 B9.58 F150.0
G0 X1.996 Y-11.612 F225.0
G1 X-7.448 Y-2.167 B9.602 F150.0
G1 X-7.518 Y-2.097 B9.602
G0 X-6.676 Y-3.505 F225.0
G1 X1.788 Y-11.971 B9.622 F150.0
G0 X1.581 Y-12.329 F225.0
G1 X-5.903 Y-4.844 B9.64 F150.0
G1 X-5.973 Y-4.774 B9.64
G0 X-5.13 Y-6.182 F225.0
G1 X1.374 Y-12.688 B9.655 F150.0
G0 X1.167 Y-13.046 F225.0
G1 X-4.358 Y-7.52 B9.668 F150.0
G1 X-4.428 Y-7.45 B9.668
G0 X-3.585 Y-8.859 F225.0
G1 X0.96 Y-13.405 B9.679 F150.0
G0 X0.753 Y-13.764 F225.0
G1 X-2.812 Y-10.197 B9.688 F150.0
G1 X-2.882 Y-10.127 B9.688
G0 X-2.04 Y-11.536 F225.0
G1 X0.546 Y-14.123 B9.694 F150.0
G0 X0.337 Y-14.48 F225.0
G1 X-1.267 Y-12.874 B9.698 F150.0
G1 X-1.337 Y-12.804 B9.698
G0 X-0.494 Y-14.212 F225.0
G1 X-0.227 Y-14.48 B9.698 F150.0
G0 X-0.227 Y-14.462 F225.0
;MESH:NONMESH
G0 X-0.227 Y-14.462 Z0.5 F120.0
G0 X17.052 Y13.872 F225.0
G0 X17.377 Y13.865
;TIME_ELAPSED:2416.317830
;LAYER:2
;TYPE:WALL-INNER
;MESH:Tri_v2_small.stl
G1 X0.677 Y-15.061 B9.754 F300.0
G1 X-0.677 Y-15.061 B9.756
G1 X-17.377 Y13.865 B9.812
G1 X-16.779 Y15.062 B9.814
G1 X16.778 Y15.061 B9.87
G1 X17.377 Y13.865 B9.872
G0 X17.831 Y13.851
;TYPE:WALL-OUTER
G1 X0.908 Y-15.461 B9.929 F150.0
G1 X-0.908 Y-15.461 B9.932
G1 X-17.831 Y13.851 B9.988
G1 X-17.026 Y15.462 B9.991
G1 X17.026 Y15.461 B10.048
G1 X17.831 Y13.851 B10.051
G0 X17.731 Y13.678 F300.0
G0 X16.945 Y13.879
;TYPE:SKIN
G1 X16.544 Y14.68 B10.052 F150.0
G1 X-16.544 Y14.682 B10.107
G1 X-16.945 Y13.879 B10.109
G1 X-0.457 Y-14.681 B10.164
G1 X0.457 Y-14.681 B10.165
G1 X16.945 Y13.879 B10.22
G0 X0.227 Y-14.48 F300.0
G1 X0.495 Y-14.212 B10.221 F150.0
G0 X-0.337 Y-14.48 F300.0
G1 X1.268 Y-12.873 B10.225 F150.0
G1 X1.338 Y-12.803 B10.225
G0 X2.04 Y-11.535 F300.0
G1 X-0.547 Y-14.123 B10.231 F150.0
G0 X-0.754 Y-13.765 F300.0
G1 X2.813 Y-10.197 B10.239 F150.0
G1 X2.883 Y-10.127 B10.24
G0 X3.586 Y-8.858 F300.0
G1 X-0.96 Y-13.406 B10.25 F150.0
G0 X-1.168 Y-13.047 F300.0
G1 X4.359 Y-7.52 B10.263 F150.0
G1 X4.429 Y-7.45 B10.263
G0 X5.131 Y-6.182 F300.0
G1 X-1.375 Y-12.689 B10.279 F150.0
G0 X-1.582 Y-12.33 F300.0
G1 X5.904 Y-4.843 B10.296 F150.0
G1 X5.974 Y-4.773 B10.297
G0 X6.677 Y-3.505 F300.0
G1 X-1.789 Y-11.972 B10.317 F150.0
G0 X-1.996 Y-11.613 F300.0
G1 X7.449 Y-2.167 B10.339 F150.0
G1 X7.519 Y-2.097 B10.339
G0 X8.222 Y-0.828 F300.0
G1 X-2.203 Y-11.254 B10.364 F150.0
G0 X-2.41 Y-10.895 F300.0
G1 X8.995 Y0.509 B10.39 F150.0
G1 X9.065 Y0.579 B10.391
G0 X9.767 Y1.848 F300.0
G1 X-2.617 Y-10.537 B10.42 F150.0
G0 X-2.824 Y-10.178 F300.0
G1 X10.54 Y3.186 B10.451 F150.0
G1 X10.61 Y3.256 B10.451
G0 X11.313 Y4.524 F300.0
G1 X-3.032 Y-9.82 B10.485 F150.0
G0 X-3.238 Y-9.461 F300.0
G1 X12.085 Y5.863 B10.521 F150.0
G1 X12.155 Y5.933 B10.521
G0 X12.858 Y7.201 F300.0
G1 X-3.445 Y-9.102 B10.56 F150.0
G0 X-3.652 Y-8.744 F300.0
G1 X13.63 Y8.539 B10.601 F150.0
G1 X13.7 Y8.609 B10.601
G0 X14.403 Y9.878 F300.0
G1 X-3.86 Y-8.385 B10.644 F150.0
G0 X-4.067 Y-8.027 F300.0
G1 X15.176 Y11.216 B10.689 F150.0
G1 X15.246 Y11.286 B10.689
G0 X15.948 Y12.554 F300.0
G1 X-4.273 Y-7.667 B10.737 F150.0
G0 X-4.48 Y-7.309 F300.0
G1 X16.716 Y13.888 B10.787 F150.0
G0 X16.527 Y14.265 F300.0
G1 X-4.688 Y-6.95 B10.837 F150.0
G0 X-4.895 Y-6.592 F300.0
G1 X16.177 Y14.48 B10.887 F150.0
G0 X15.611 Y14.48 F300.0
G1 X-5.102 Y-6.233 B10.935 F150.0
G0 X-5.309 Y-5.875 F300.0
G1 X15.045 Y14.48 B10.983 F150.0
G0 X14.48 Y14.48 F300.0
G1 X-5.516 Y-5.516 B11.03 F150.0
G0 X-5.723 Y-5.157 F300.0
G1 X13.914 Y14.48 B11.077 F150.0
G0 X13.348 Y14.48 F300.0
G1 X-5.93 Y-4.799 B11.122 F150.0
G0 X-6.137 Y-4.44 F300.0
G1 X12.783 Y14.48 B11.167 F150.0
G0 X12.217 Y14.48 F300.0
G1 X-6.344 Y-4.082 B11.21 F150.0
G0 X-6.551 Y-3.722 F300.0
G1 X11.651 Y14.48 B11.253 F150.0
G0 X11.086 Y14.48 F300.0
G1 X-6.758 Y-3.364 B11.295 F150.0
G0 X-6.965 Y-3.005 F300.0
G1 X10.52 Y14.48 B11.337 F150.0
G0 X9.954 Y14.48 F300.0
G1 X-7.172 Y-2.647 B11.377 F150.0
G0 X-7.38 Y-2.288 F300.0
G1 X9.388 Y14.48 B11.416 F150.0
G0 X8.823 Y14.48 F300.0
G1 X-7.586 Y-1.929 B11.455 F150.0
G0 X-7.793 Y-1.571 F300.0
G1 X8.257 Y14.48 B11.493 F150.0
G0 X7.691 Y14.48 F300.0
G1 X-8.0 Y-1.212 B11.53 F150.0
G0 X-8.208 Y-0.854 F300.0
G1 X7.126 Y14.48 B11.566 F150.0
G0 X6.56 Y14.48 F300.0
G1 X-8.415 Y-0.495 B11.601 F150.0
G0 X-8.622 Y-0.137 F300.0
G1 X5.994 Y14.48 B11.636 F150.0
G0 X5.429 Y14.48 F300.0
G1 X-8.828 Y0.222 B11.669 F150.0
G0 X-9.036 Y0.58 F300.0
G1 X4.864 Y14.48 B11.702 F150.0
G0 X4.298 Y14.48 F300.0
G1 X-9.243 Y0.939 B11.734 F150.0
G0 X-9.45 Y1.297 F300.0
G1 X3.732 Y14.48 B11.765 F150.0
G0 X3.167 Y14.48 F300.0
G1 X-9.657 Y1.656 B11.795 F150.0
G0 X-9.864 Y2.015 F300.0
G1 X2.601 Y14.48 B11.825 F150.0
G0 X2.035 Y14.48 F300.0
G1 X-10.071 Y2.373 B11.853 F150.0
G0 X-10.278 Y2.732 F300.0
G1 X1.47 Y14.48 B11.881 F150.0
G0 X0.904 Y14.48 F300.0
G1 X-10.485 Y3.09 B11.908 F150.0
G0 X-10.692 Y3.449 F300.0
G1 X0.338 Y14.48 B11.934 F150.0
G0 X-0.226 Y14.48 F300.0
G1 X-10.899 Y3.808 B11.959 F150.0
G0 X-11.106 Y4.166 F300.0
G1 X-0.792 Y14.48 B11.983 F150.0
G0 X-1.358 Y14.48 F300.0
G1 X-11.313 Y4.525 B12.006 F150.0
G0 X-11.52 Y4.883 F300.0
G1 X-1.924 Y14.48 B12.029 F150.0
G0 X-2.489 Y14.48 F300.0
G1 X-11.728 Y5.242 B12.051 F150.0
G0 X-11.935 Y5.6 F300.0
G1 X-3.055 Y14.48 B12.072 F150.0
G0 X-3.621 Y14.48 F300.0
G1 X-12.141 Y5.96 B12.092 F150.0
G0 X-12.348 Y6.318 F300.0
G1 X-4.186 Y14.48 B12.111 F150.0
G0 X-4.752 Y14.48 F300.0
G1 X-12.556 Y6.677 B12.129 F150.0
G0 X-12.763 Y7.035 F300.0
G1 X-5.318 Y14.48 B12.147 F150.0
G0 X-5.883 Y14.481 F300.0
G1 X-12.97 Y7.394 B12.164 F150.0
G0 X-13.176 Y7.753 F300.0
G1 X-6.448 Y14.481 B12.18 F150.0
G0 X-7.014 Y14.481 F300.0
G1 X-13.384 Y8.111 B12.195 F150.0
G0 X-13.591 Y8.47 F300.0
G1 X-7.58 Y14.481 B12.209 F150.0
G0 X-8.145 Y14.481 F300.0
G1 X-13.798 Y8.828 B12.222 F150.0
G0 X-14.005 Y9.187 F300.0
G1 X-8.711 Y14.481 B12.235 F150.0
G0 X-9.277 Y14.481 F300.0
G1 X-14.212 Y9.546 B12.246 F150.0
G0 X-14.419 Y9.905 F300.0
G1 X-9.842 Y14.481 B12.257 F150.0
G0 X-10.408 Y14.481 F300.0
G1 X-14.626 Y10.263 B12.267 F150.0
G0 X-14.833 Y10.622 F300.0
G1 X-10.974 Y14.481 B12.276 F150.0
G0 X-11.539 Y14.481 F300.0
G1 X-15.04 Y10.98 B12.284 F150.0
G0 X-15.248 Y11.339 F300.0
G1 X-12.105 Y14.481 B12.292 F150.0
G0 X-12.671 Y14.481 F300.0
G1 X-15.454 Y11.698 B12.298 F150.0
G0 X-15.661 Y12.056 F300.0
G1 X-13.237 Y14.481 B12.304 F150.0
G0 X-13.802 Y14.481 F300.0
G1 X-15.868 Y12.415 B12.309 F150.0
G0 X-16.076 Y12.773 F300.0
G1 X-14.368 Y14.481 B12.313 F150.0
G0 X-14.934 Y14.481 F300.0
G1 X-16.283 Y13.132 B12.316 F150.0
G0 X-16.489 Y13.491 F300.0
G1 X-15.499 Y14.481 B12.318 F150.0
G0 X-16.065 Y14.481 F300.0
G1 X-16.696 Y13.85 B12.32 F150.0
G1 X-16.766 Y13.78 B12.32
G0 X-16.67 Y13.836 F300.0
;MESH:NONMESH
G0 X-16.67 Y13.836 Z0.6 F120.0
G0 X17.052 Y13.872 F300.0
G0 X17.377 Y13.865
;TIME_ELAPSED:3048.330256
;LAYER:3
;TYPE:WALL-INNER
;MESH:Tri_v2_small.stl
G1 X0.677 Y-15.061 B12.376
G1 X-0.677 Y-15.061 B12.378
G1 X-17.377 Y13.865 B12.433
G1 X-16.779 Y15.062 B12.436
G1 X16.778 Y15.061 B12.492
G1 X17.377 Y13.865 B12.494
G0 X17.831 Y13.851
;TYPE:WALL-OUTER
G1 X0.908 Y-15.461 B12.55 F150.0
G1 X-0.908 Y-15.461 B12.553
G1 X-17.831 Y13.851 B12.61
G1 X-17.026 Y15.462 B12.613
G1 X17.026 Y15.461 B12.669
G1 X17.831 Y13.851 B12.672
G0 X17.731 Y13.678 F300.0
G0 X16.945 Y13.879
;TYPE:SKIN
G1 X16.544 Y14.68 B12.674 F150.0
G1 X-16.544 Y14.682 B12.729
G1 X-16.945 Y13.879 B12.73
G1 X-0.457 Y-14.681 B12.785
G1 X0.457 Y-14.681 B12.787
G1 X16.945 Y13.879 B12.842
G0 X16.066 Y14.48 F300.0
G1 X16.696 Y13.85 B12.843 F150.0
G0 X16.489 Y13.492 F300.0
G1 X15.5 Y14.48 B12.846 F150.0
G0 X14.934 Y14.48 F300.0
G1 X16.282 Y13.133 B12.849 F150.0
G0 X16.075 Y12.774 F300.0
G1 X14.369 Y14.48 B12.853 F150.0
G0 X13.803 Y14.48 F300.0
G1 X15.868 Y12.416 B12.858 F150.0
G0 X15.661 Y12.057 F300.0
G1 X13.237 Y14.48 B12.863 F150.0
G0 X12.672 Y14.48 F300.0
G1 X15.453 Y11.699 B12.87 F150.0
G0 X15.247 Y11.339 F300.0
G1 X12.106 Y14.48 B12.877 F150.0
G0 X11.54 Y14.48 F300.0
G1 X15.04 Y10.981 B12.886 F150.0
G0 X14.832 Y10.622 F300.0
G1 X10.975 Y14.48 B12.895 F150.0
G0 X10.409 Y14.48 F300.0
G1 X14.625 Y10.264 B12.905 F150.0
G0 X14.418 Y9.905 F300.0
G1 X9.843 Y14.48 B12.915 F150.0
G0 X9.277 Y14.48 F300.0
G1 X14.211 Y9.547 B12.927 F150.0
G0 X14.004 Y9.188 F300.0
G1 X8.712 Y14.48 B12.94 F150.0
G0 X8.146 Y14.48 F300.0
G1 X13.797 Y8.829 B12.953 F150.0
G0 X13.59 Y8.471 F300.0
G1 X7.58 Y14.48 B12.967 F150.0
G0 X7.015 Y14.48 F300.0
G1 X13.383 Y8.112 B12.982 F150.0
G0 X13.176 Y7.754 F300.0
G1 X6.449 Y14.48 B12.998 F150.0
G0 X5.883 Y14.48 F300.0
G1 X12.969 Y7.394 B13.015 F150.0
G0 X12.762 Y7.036 F300.0
G1 X5.317 Y14.481 B13.032 F150.0
G0 X4.751 Y14.481 F300.0
G1 X12.555 Y6.677 B13.05 F150.0
G0 X12.348 Y6.319 F300.0
G1 X4.186 Y14.481 B13.07 F150.0
G0 X3.62 Y14.481 F300.0
G1 X12.141 Y5.96 B13.09 F150.0
G0 X11.934 Y5.601 F300.0
G1 X3.054 Y14.481 B13.111 F150.0
G0 X2.489 Y14.481 F300.0
G1 X11.727 Y5.243 B13.132 F150.0
G0 X11.52 Y4.884 F300.0
G1 X1.923 Y14.481 B13.155 F150.0
G0 X1.357 Y14.481 F300.0
G1 X11.313 Y4.526 B13.179 F150.0
G0 X11.105 Y4.167 F300.0
G1 X0.791 Y14.481 B13.203 F150.0
G0 X0.226 Y14.481 F300.0
G1 X10.898 Y3.809 B13.228 F150.0
G0 X10.692 Y3.449 F300.0
G1 X-0.339 Y14.481 B13.254 F150.0
G0 X-0.905 Y14.481 F300.0
G1 X10.484 Y3.091 B13.281 F150.0
G0 X10.277 Y2.732 F300.0
G1 X-1.47 Y14.481 B13.308 F150.0
G0 X-2.036 Y14.481 F300.0
G1 X10.07 Y2.374 B13.337 F150.0
G0 X9.863 Y2.015 F300.0
G1 X-2.602 Y14.481 B13.366 F150.0
G0 X-3.167 Y14.481 F300.0
G1 X9.656 Y1.656 B13.397 F150.0
G0 X9.449 Y1.298 F300.0
G1 X-3.733 Y14.481 B13.428 F150.0
G0 X-4.299 Y14.481 F300.0
G1 X9.242 Y0.939 B13.46 F150.0
G0 X9.035 Y0.581 F300.0
G1 X-4.864 Y14.481 B13.492 F150.0
G0 X-5.43 Y14.481 F300.0
G1 X8.828 Y0.222 B13.526 F150.0
G0 X8.621 Y-0.136 F300.0
G1 X-5.996 Y14.482 B13.56 F150.0
G0 X-6.562 Y14.482 F300.0
G1 X8.414 Y-0.494 B13.596 F150.0
G0 X8.207 Y-0.853 F300.0
G1 X-7.128 Y14.482 B13.632 F150.0
G0 X-7.694 Y14.482 F300.0
G1 X8.0 Y-1.211 B13.669 F150.0
G0 X7.793 Y-1.57 F300.0
G1 X-8.259 Y14.482 B13.707 F150.0
G0 X-8.825 Y14.482 F300.0
G1 X7.585 Y-1.928 B13.745 F150.0
G0 X7.379 Y-2.288 F300.0
G1 X-9.391 Y14.482 B13.785 F150.0
G0 X-9.956 Y14.482 F300.0
G1 X7.172 Y-2.646 B13.825 F150.0
G0 X6.965 Y-3.005 F300.0
G1 X-10.522 Y14.482 B13.866 F150.0
G0 X-11.088 Y14.482 F300.0
G1 X6.757 Y-3.363 B13.908 F150.0
G0 X6.55 Y-3.722 F300.0
G1 X-11.653 Y14.482 B13.951 F150.0
G0 X-12.219 Y14.482 F300.0
G1 X6.344 Y-4.081 B13.995 F150.0
G0 X6.136 Y-4.439 F300.0
G1 X-12.785 Y14.482 B14.04 F150.0
G0 X-13.35 Y14.482 F300.0
G1 X5.929 Y-4.798 B14.085 F150.0
G0 X5.722 Y-5.156 F300.0
G1 X-13.916 Y14.482 B14.131 F150.0
G0 X-14.482 Y14.482 F300.0
G1 X5.515 Y-5.515 B14.178 F150.0
G0 X5.308 Y-5.874 F300.0
G1 X-15.047 Y14.482 B14.226 F150.0
G0 X-15.613 Y14.482 F300.0
G1 X5.101 Y-6.233 B14.275 F150.0
G0 X4.894 Y-6.591 F300.0
G1 X-16.179 Y14.482 B14.325 F150.0
G0 X-16.527 Y14.265 F300.0
G1 X4.687 Y-6.95 B14.375 F150.0
G0 X4.48 Y-7.308 F300.0
G1 X-16.716 Y13.887 B14.425 F150.0
G1 X-16.786 Y13.957 B14.425
G0 X-15.948 Y12.553 F300.0
G1 X4.273 Y-7.667 B14.472 F150.0
G0 X4.066 Y-8.026 F300.0
G1 X-15.175 Y11.216 B14.518 F150.0
G1 X-15.245 Y11.286 B14.518
G0 X-14.403 Y9.877 F300.0
G1 X3.859 Y-8.384 B14.561 F150.0
G0 X3.652 Y-8.743 F300.0
G1 X-13.63 Y8.539 B14.602 F150.0
G1 X-13.7 Y8.609 B14.602
G0 X-12.857 Y7.2 F300.0
G1 X3.445 Y-9.101 B14.64 F150.0
G0 X3.237 Y-9.46 F300.0
G1 X-12.085 Y5.862 B14.676 F150.0
G1 X-12.155 Y5.932 B14.677
G0 X-11.312 Y4.524 F300.0
G1 X3.031 Y-9.819 B14.71 F150.0
G0 X2.824 Y-10.178 F300.0
G1 X-10.539 Y3.185 B14.742 F150.0
G1 X-10.609 Y3.255 B14.742
G0 X-9.767 Y1.847 F300.0
G1 X2.617 Y-10.536 B14.771 F150.0
G0 X2.409 Y-10.895 F300.0
G1 X-8.994 Y0.509 B14.798 F150.0
G1 X-9.064 Y0.579 B14.798
G0 X-8.221 Y-0.829 F300.0
G1 X2.202 Y-11.253 B14.823 F150.0
G0 X1.996 Y-11.612 F300.0
G1 X-7.448 Y-2.167 B14.845 F150.0
G1 X-7.518 Y-2.097 B14.845
G0 X-6.676 Y-3.505 F300.0
G1 X1.788 Y-11.971 B14.865 F150.0
G0 X1.581 Y-12.329 F300.0
G1 X-5.903 Y-4.844 B14.883 F150.0
G1 X-5.973 Y-4.774 B14.883
G0 X-5.13 Y-6.182 F300.0
G1 X1.374 Y-12.688 B14.898 F150.0
G0 X1.167 Y-13.046 F300.0
G1 X-4.358 Y-7.52 B14.911 F150.0
G1 X-4.428 Y-7.45 B14.911
G0 X-3.585 Y-8.859 F300.0
G1 X0.96 Y-13.405 B14.922 F150.0
G0 X0.753 Y-13.764 F300.0
G1 X-2.812 Y-10.197 B14.931 F150.0
G1 X-2.882 Y-10.127 B14.931
G0 X-2.04 Y-11.536 F300.0
G1 X0.546 Y-14.123 B14.937 F150.0
G0 X0.337 Y-14.48 F300.0
G1 X-1.267 Y-12.874 B14.941 F150.0
G1 X-1.337 Y-12.804 B14.941
G0 X-0.494 Y-14.212 F300.0
G1 X-0.227 Y-14.48 B14.941 F150.0
G0 X-0.227 Y-14.462 F300.0
;MESH:NONMESH
G0 X-0.227 Y-14.462 Z0.7 F120.0
G0 X17.052 Y13.872 F300.0
G0 X17.377 Y13.865
;TIME_ELAPSED:3674.333017
;LAYER:4
;TYPE:WALL-INNER
;MESH:Tri_v2_small.stl
G1 X0.677 Y-15.061 B14.997
G1 X-0.677 Y-15.061 B14.999
G1 X-17.377 Y13.865 B15.055
G1 X-16.779 Y15.062 B15.057
G1 X16.778 Y15.061 B15.113
G1 X17.377 Y13.865 B15.115
G0 X17.831 Y13.851
;TYPE:WALL-OUTER
G1 X0.908 Y-15.461 B15.172 F150.0
G1 X-0.908 Y-15.461 B15.175
G1 X-17.831 Y13.851 B15.231
G1 X-17.026 Y15.462 B15.234
G1 X17.026 Y15.461 B15.291
G1 X17.831 Y13.851 B15.294
G0 X17.731 Y13.678 F300.0
G0 X16.945 Y13.879
;TYPE:SKIN
G1 X16.544 Y14.68 B15.295 F150.0
G1 X-16.544 Y14.682 B15.35
G1 X-16.945 Y13.879 B15.352
G1 X-0.457 Y-14.681 B15.407
G1 X0.457 Y-14.681 B15.408
G1 X16.945 Y13.879 B15.463
G0 X0.227 Y-14.48 F300.0
G1 X0.495 Y-14.212 B15.464 F150.0
G0 X-0.337 Y-14.48 F300.0
G1 X1.268 Y-12.873 B15.468 F150.0
G1 X1.338 Y-12.803 B15.468
G0 X2.04 Y-11.535 F300.0
G1 X-0.547 Y-14.123 B15.474 F150.0
G0 X-0.754 Y-13.765 F300.0
G1 X2.813 Y-10.197 B15.482 F150.0
G1 X2.883 Y-10.127 B15.483
G0 X3.586 Y-8.858 F300.0
G1 X-0.96 Y-13.406 B15.493 F150.0
G0 X-1.168 Y-13.047 F300.0
G1 X4.359 Y-7.52 B15.506 F150.0
G1 X4.429 Y-7.45 B15.506
G0 X5.131 Y-6.182 F300.0
G1 X-1.375 Y-12.689 B15.522 F150.0
G0 X-1.582 Y-12.33 F300.0
G1 X5.904 Y-4.843 B15.539 F150.0
G1 X5.974 Y-4.773 B15.54
G0 X6.677 Y-3.505 F300.0
G1 X-1.789 Y-11.972 B15.56 F150.0
G0 X-1.996 Y-11.613 F300.0
G1 X7.449 Y-2.167 B15.582 F150.0
G1 X7.519 Y-2.097 B15.582
G0 X8.222 Y-0.828 F300.0
G1 X-2.203 Y-11.254 B15.607 F150.0
G0 X-2.41 Y-10.895 F300.0
G1 X8.995 Y0.509 B15.633 F150.0
G1 X9.065 Y0.579 B15.634
G0 X9.767 Y1.848 F300.0
G1 X-2.617 Y-10.537 B15.663 F150.0
G0 X-2.824 Y-10.178 F300.0
G1 X10.54 Y3.186 B15.694 F150.0
G1 X10.61 Y3.256 B15.694
G0 X11.313 Y4.524 F300.0
G1 X-3.032 Y-9.82 B15.728 F150.0
G0 X-3.238 Y-9.461 F300.0
G1 X12.085 Y5.863 B15.764 F150.0
G1 X12.155 Y5.933 B15.764
G0 X12.858 Y7.201 F300.0
G1 X-3.445 Y-9.102 B15.803 F150.0
G0 X-3.652 Y-8.744 F300.0
G1 X13.63 Y8.539 B15.844 F150.0
G1 X13.7 Y8.609 B15.844
G0 X14.403 Y9.878 F300.0
G1 X-3.86 Y-8.385 B15.887 F150.0
G0 X-4.067 Y-8.027 F300.0
G1 X15.176 Y11.216 B15.932 F150.0
G1 X15.246 Y11.286 B15.932
G0 X15.948 Y12.554 F300.0
G1 X-4.273 Y-7.667 B15.98 F150.0
G0 X-4.48 Y-7.309 F300.0
G1 X16.716 Y13.888 B16.03 F150.0
G0 X16.527 Y14.265 F300.0
G1 X-4.688 Y-6.95 B16.08 F150.0
G0 X-4.895 Y-6.592 F300.0
G1 X16.177 Y14.48 B16.129 F150.0
G0 X15.611 Y14.48 F300.0
G1 X-5.102 Y-6.233 B16.178 F150.0
G0 X-5.309 Y-5.875 F300.0
G1 X15.045 Y14.48 B16.226 F150.0
G0 X14.48 Y14.48 F300.0
G1 X-5.516 Y-5.516 B16.273 F150.0
G0 X-5.723 Y-5.157 F300.0
G1 X13.914 Y14.48 B16.32 F150.0
G0 X13.348 Y14.48 F300.0
G1 X-5.93 Y-4.799 B16.365 F150.0
G0 X-6.137 Y-4.44 F300.0
G1 X12.783 Y14.48 B16.41 F150.0
G0 X12.217 Y14.48 F300.0
G1 X-6.344 Y-4.082 B16.453 F150.0
G0 X-6.551 Y-3.722 F300.0
G1 X11.651 Y14.48 B16.496 F150.0
G0 X11.086 Y14.48 F300.0
G1 X-6.758 Y-3.364 B16.538 F150.0
G0 X-6.965 Y-3.005 F300.0
G1 X10.52 Y14.48 B16.579 F150.0
G0 X9.954 Y14.48 F300.0
G1 X-7.172 Y-2.647 B16.62 F150.0
G0 X-7.38 Y-2.288 F300.0
G1 X9.388 Y14.48 B16.659 F150.0
G0 X8.823 Y14.48 F300.0
G1 X-7.586 Y-1.929 B16.698 F150.0
G0 X-7.793 Y-1.571 F300.0
G1 X8.257 Y14.48 B16.736 F150.0
G0 X7.691 Y14.48 F300.0
G1 X-8.0 Y-1.212 B16.773 F150.0
G0 X-8.208 Y-0.854 F300.0
G1 X7.126 Y14.48 B16.809 F150.0
G0 X6.56 Y14.48 F300.0
G1 X-8.415 Y-0.495 B16.844 F150.0
G0 X-8.622 Y-0.137 F300.0
G1 X5.994 Y14.48 B16.879 F150.0
G0 X5.429 Y14.48 F300.0
G1 X-8.828 Y0.222 B16.912 F150.0
G0 X-9.036 Y0.58 F300.0
G1 X4.864 Y14.48 B16.945 F150.0
G0 X4.298 Y14.48 F300.0
G1 X-9.243 Y0.939 B16.977 F150.0
G0 X-9.45 Y1.297 F300.0
G1 X3.732 Y14.48 B17.008 F150.0
G0 X3.167 Y14.48 F300.0
G1 X-9.657 Y1.656 B17.038 F150.0
G0 X-9.864 Y2.015 F300.0
G1 X2.601 Y14.48 B17.068 F150.0
G0 X2.035 Y14.48 F300.0
G1 X-10.071 Y2.373 B17.096 F150.0
G0 X-10.278 Y2.732 F300.0
G1 X1.47 Y14.48 B17.124 F150.0
G0 X0.904 Y14.48 F300.0
G1 X-10.485 Y3.09 B17.151 F150.0
G0 X-10.692 Y3.449 F300.0
G1 X0.338 Y14.48 B17.177 F150.0
G0 X-0.226 Y14.48 F300.0
G1 X-10.899 Y3.808 B17.202 F150.0
G0 X-11.106 Y4.166 F300.0
G1 X-0.792 Y14.48 B17.226 F150.0
G0 X-1.358 Y14.48 F300.0
G1 X-11.313 Y4.525 B17.249 F150.0
G0 X-11.52 Y4.883 F300.0
G1 X-1.924 Y14.48 B17.272 F150.0
G0 X-2.489 Y14.48 F300.0
G1 X-11.728 Y5.242 B17.294 F150.0
G0 X-11.935 Y5.6 F300.0
G1 X-3.055 Y14.48 B17.315 F150.0
G0 X-3.621 Y14.48 F300.0
G1 X-12.141 Y5.96 B17.335 F150.0
G0 X-12.348 Y6.318 F300.0
G1 X-4.186 Y14.48 B17.354 F150.0
G0 X-4.752 Y14.48 F300.0
G1 X-12.556 Y6.677 B17.372 F150.0
G0 X-12.763 Y7.035 F300.0
G1 X-5.318 Y14.48 B17.39 F150.0
G0 X-5.883 Y14.481 F300.0
G1 X-12.97 Y7.394 B17.407 F150.0
G0 X-13.176 Y7.753 F300.0
G1 X-6.448 Y14.481 B17.423 F150.0
G0 X-7.014 Y14.481 F300.0
G1 X-13.384 Y8.111 B17.438 F150.0
G0 X-13.591 Y8.47 F300.0
G1 X-7.58 Y14.481 B17.452 F150.0
G0 X-8.145 Y14.481 F300.0
G1 X-13.798 Y8.828 B17.465 F150.0
G0 X-14.005 Y9.187 F300.0
G1 X-8.711 Y14.481 B17.477 F150.0
G0 X-9.277 Y14.481 F300.0
G1 X-14.212 Y9.546 B17.489 F150.0
G0 X-14.419 Y9.905 F300.0
G1 X-9.842 Y14.481 B17.5 F150.0
G0 X-10.408 Y14.481 F300.0
G1 X-14.626 Y10.263 B17.51 F150.0
G0 X-14.833 Y10.622 F300.0
G1 X-10.974 Y14.481 B17.519 F150.0
G0 X-11.539 Y14.481 F300.0
G1 X-15.04 Y10.98 B17.527 F150.0
G0 X-15.248 Y11.339 F300.0
G1 X-12.105 Y14.481 B17.535 F150.0
G0 X-12.671 Y14.481 F300.0
G1 X-15.454 Y11.698 B17.541 F150.0
G0 X-15.661 Y12.056 F300.0
G1 X-13.237 Y14.481 B17.547 F150.0
G0 X-13.802 Y14.481 F300.0
G1 X-15.868 Y12.415 B17.552 F150.0
G0 X-16.076 Y12.773 F300.0
G1 X-14.368 Y14.481 B17.556 F150.0
G0 X-14.934 Y14.481 F300.0
G1 X-16.283 Y13.132 B17.559 F150.0
G0 X-16.489 Y13.491 F300.0
G1 X-15.499 Y14.481 B17.561 F150.0
G0 X-16.065 Y14.481 F300.0
G1 X-16.696 Y13.85 B17.563 F150.0
G1 X-16.766 Y13.78 B17.563
G0 X-16.67 Y13.836 F300.0
;MESH:NONMESH
G0 X-16.67 Y13.836 Z0.8 F120.0
G0 X17.052 Y13.872 F300.0
G0 X17.377 Y13.865
;TIME_ELAPSED:4306.345443
;LAYER:5
;TYPE:WALL-INNER
;MESH:Tri_v2_small.stl
G1 X0.677 Y-15.061 B17.619
G1 X-0.677 Y-15.061 B17.621
G1 X-17.377 Y13.865 B17.676
G1 X-16.779 Y15.062 B17.679
G1 X16.778 Y15.061 B17.735
G1 X17.377 Y13.865 B17.737
G0 X17.831 Y13.851
;TYPE:WALL-OUTER
G1 X0.908 Y-15.461 B17.793 F150.0
G1 X-0.908 Y-15.461 B17.796
G1 X-17.831 Y13.851 B17.853
G1 X-17.026 Y15.462 B17.856
G1 X17.026 Y15.461 B17.912
G1 X17.831 Y13.851 B17.915
G0 X17.731 Y13.678 F300.0
G0 X16.945 Y13.879
;TYPE:SKIN
G1 X16.544 Y14.68 B17.917 F150.0
G1 X-16.544 Y14.682 B17.972
G1 X-16.945 Y13.879 B17.973
G1 X-0.457 Y-14.681 B18.028
G1 X0.457 Y-14.681 B18.03
G1 X16.945 Y13.879 B18.085
G0 X16.066 Y14.48 F300.0
G1 X16.696 Y13.85 B18.086 F150.0
G0 X16.489 Y13.492 F300.0
G1 X15.5 Y14.48 B18.089 F150.0
G0 X14.934 Y14.48 F300.0
G1 X16.282 Y13.133 B18.092 F150.0
G0 X16.075 Y12.774 F300.0
G1 X14.369 Y14.48 B18.096 F150.0
G0 X13.803 Y14.48 F300.0
G1 X15.868 Y12.416 B18.101 F150.0
G0 X15.661 Y12.057 F300.0
G1 X13.237 Y14.48 B18.106 F150.0
G0 X12.672 Y14.48 F300.0
G1 X15.453 Y11.699 B18.113 F150.0
G0 X15.247 Y11.339 F300.0
G1 X12.106 Y14.48 B18.12 F150.0
G0 X11.54 Y14.48 F300.0
G1 X15.04 Y10.981 B18.129 F150.0
G0 X14.832 Y10.622 F300.0
G1 X10.975 Y14.48 B18.138 F150.0
G0 X10.409 Y14.48 F300.0
G1 X14.625 Y10.264 B18.148 F150.0
G0 X14.418 Y9.905 F300.0
G1 X9.843 Y14.48 B18.158 F150.0
G0 X9.277 Y14.48 F300.0
G1 X14.211 Y9.547 B18.17 F150.0
G0 X14.004 Y9.188 F300.0
G1 X8.712 Y14.48 B18.182 F150.0
G0 X8.146 Y14.48 F300.0
G1 X13.797 Y8.829 B18.196 F150.0
G0 X13.59 Y8.471 F300.0
G1 X7.58 Y14.48 B18.21 F150.0
G0 X7.015 Y14.48 F300.0
G1 X13.383 Y8.112 B18.225 F150.0
G0 X13.176 Y7.754 F300.0
G1 X6.449 Y14.48 B18.241 F150.0
G0 X5.883 Y14.48 F300.0
G1 X12.969 Y7.394 B18.258 F150.0
G0 X12.762 Y7.036 F300.0
G1 X5.317 Y14.481 B18.275 F150.0
G0 X4.751 Y14.481 F300.0
G1 X12.555 Y6.677 B18.293 F150.0
G0 X12.348 Y6.319 F300.0
G1 X4.186 Y14.481 B18.313 F150.0
G0 X3.62 Y14.481 F300.0
G1 X12.141 Y5.96 B18.333 F150.0
G0 X11.934 Y5.601 F300.0
G1 X3.054 Y14.481 B18.354 F150.0
G0 X2.489 Y14.481 F300.0
G1 X11.727 Y5.243 B18.375 F150.0
G0 X11.52 Y4.884 F300.0
G1 X1.923 Y14.481 B18.398 F150.0
G0 X1.357 Y14.481 F300.0
G1 X11.313 Y4.526 B18.422 F150.0
G0 X11.105 Y4.167 F300.0
G1 X0.791 Y14.481 B18.446 F150.0
G0 X0.226 Y14.481 F300.0
G1 X10.898 Y3.809 B18.471 F150.0
G0 X10.692 Y3.449 F300.0
G1 X-0.339 Y14.481 B18.497 F150.0
G0 X-0.905 Y14.481 F300.0
G1 X10.484 Y3.091 B18.524 F150.0
G0 X10.277 Y2.732 F300.0
G1 X-1.47 Y14.481 B18.551 F150.0
G0 X-2.036 Y14.481 F300.0
G1 X10.07 Y2.374 B18.58 F150.0
G0 X9.863 Y2.015 F300.0
G1 X-2.602 Y14.481 B18.609 F150.0
G0 X-3.167 Y14.481 F300.0
G1 X9.656 Y1.656 B18.64 F150.0
G0 X9.449 Y1.298 F300.0
G1 X-3.733 Y14.481 B18.671 F150.0
G0 X-4.299 Y14.481 F300.0
G1 X9.242 Y0.939 B18.703 F150.0
G0 X9.035 Y0.581 F300.0
G1 X-4.864 Y14.481 B18.735 F150.0
G0 X-5.43 Y14.481 F300.0
G1 X8.828 Y0.222 B18.769 F150.0
G0 X8.621 Y-0.136 F300.0
G1 X-5.996 Y14.482 B18.803 F150.0
G0 X-6.562 Y14.482 F300.0
G1 X8.414 Y-0.494 B18.839 F150.0
G0 X8.207 Y-0.853 F300.0
G1 X-7.128 Y14.482 B18.875 F150.0
G0 X-7.694 Y14.482 F300.0
G1 X8.0 Y-1.211 B18.912 F150.0
G0 X7.793 Y-1.57 F300.0
G1 X-8.259 Y14.482 B18.95 F150.0
G0 X-8.825 Y14.482 F300.0
G1 X7.585 Y-1.928 B18.988 F150.0
G0 X7.379 Y-2.288 F300.0
G1 X-9.391 Y14.482 B19.028 F150.0
G0 X-9.956 Y14.482 F300.0
G1 X7.172 Y-2.646 B19.068 F150.0
G0 X6.965 Y-3.005 F300.0
G1 X-10.522 Y14.482 B19.109 F150.0
G0 X-11.088 Y14.482 F300.0
G1 X6.757 Y-3.363 B19.151 F150.0
G0 X6.55 Y-3.722 F300.0
G1 X-11.653 Y14.482 B19.194 F150.0
G0 X-12.219 Y14.482 F300.0
G1 X6.344 Y-4.081 B19.238 F150.0
G0 X6.136 Y-4.439 F300.0
G1 X-12.785 Y14.482 B19.282 F150.0
G0 X-13.35 Y14.482 F300.0
G1 X5.929 Y-4.798 B19.328 F150.0
G0 X5.722 Y-5.156 F300.0
G1 X-13.916 Y14.482 B19.374 F150.0
G0 X-14.482 Y14.482 F300.0
G1 X5.515 Y-5.515 B19.421 F150.0
G0 X5.308 Y-5.874 F300.0
G1 X-15.047 Y14.482 B19.469 F150.0
G0 X-15.613 Y14.482 F300.0
G1 X5.101 Y-6.233 B19.518 F150.0
G0 X4.894 Y-6.591 F300.0
G1 X-16.179 Y14.482 B19.568 F150.0
G0 X-16.527 Y14.265 F300.0
G1 X4.687 Y-6.95 B19.618 F150.0
G0 X4.48 Y-7.308 F300.0
G1 X-16.716 Y13.887 B19.668 F150.0
G1 X-16.786 Y13.957 B19.668
G0 X-15.948 Y12.553 F300.0
G1 X4.273 Y-7.667 B19.715 F150.0
G0 X4.066 Y-8.026 F300.0
G1 X-15.175 Y11.216 B19.761 F150.0
G1 X-15.245 Y11.286 B19.761
G0 X-14.403 Y9.877 F300.0
G1 X3.859 Y-8.384 B19.804 F150.0
G0 X3.652 Y-8.743 F300.0
G1 X-13.63 Y8.539 B19.845 F150.0
G1 X-13.7 Y8.609 B19.845
G0 X-12.857 Y7.2 F300.0
G1 X3.445 Y-9.101 B19.883 F150.0
G0 X3.237 Y-9.46 F300.0
G1 X-12.085 Y5.862 B19.919 F150.0
G1 X-12.155 Y5.932 B19.92
G0 X-11.312 Y4.524 F300.0
G1 X3.031 Y-9.819 B19.953 F150.0
G0 X2.824 Y-10.178 F300.0
G1 X-10.539 Y3.185 B19.985 F150.0
G1 X-10.609 Y3.255 B19.985
G0 X-9.767 Y1.847 F300.0
G1 X2.617 Y-10.536 B20.014 F150.0
G0 X2.409 Y-10.895 F300.0
G1 X-8.994 Y0.509 B20.041 F150.0
G1 X-9.064 Y0.579 B20.041
G0 X-8.221 Y-0.829 F300.0
G1 X2.202 Y-11.253 B20.066 F150.0
G0 X1.996 Y-11.612 F300.0
G1 X-7.448 Y-2.167 B20.088 F150.0
G1 X-7.518 Y-2.097 B20.088
G0 X-6.676 Y-3.505 F300.0
G1 X1.788 Y-11.971 B20.108 F150.0
G0 X1.581 Y-12.329 F300.0
G1 X-5.903 Y-4.844 B20.126 F150.0
G1 X-5.973 Y-4.774 B20.126
G0 X-5.13 Y-6.182 F300.0
G1 X1.374 Y-12.688 B20.141 F150.0
G0 X1.167 Y-13.046 F300.0
G1 X-4.358 Y-7.52 B20.154 F150.0
G1 X-4.428 Y-7.45 B20.154
G0 X-3.585 Y-8.859 F300.0
G1 X0.96 Y-13.405 B20.165 F150.0
G0 X0.753 Y-13.764 F300.0
G1 X-2.812 Y-10.197 B20.173 F150.0
G1 X-2.882 Y-10.127 B20.174
G0 X-2.04 Y-11.536 F300.0
G1 X0.546 Y-14.123 B20.18 F150.0
G0 X0.337 Y-14.48 F300.0
G1 X-1.267 Y-12.874 B20.184 F150.0
G1 X-1.337 Y-12.804 B20.184
G0 X-0.494 Y-14.212 F300.0
G1 X-0.227 Y-14.48 B20.184 F150.0
G0 X-0.227 Y-14.462 F300.0
;MESH:NONMESH
G0 X-0.227 Y-14.462 Z0.9 F120.0
G0 X17.052 Y13.872 F300.0
G0 X17.377 Y13.865
;TIME_ELAPSED:4932.348204
;LAYER:6
;TYPE:WALL-INNER
;MESH:Tri_v2_small.stl
G1 X0.677 Y-15.061 B20.24
G1 X-0.677 Y-15.061 B20.242
G1 X-17.377 Y13.865 B20.298
G1 X-16.779 Y15.062 B20.3
G1 X16.778 Y15.061 B20.356
G1 X17.377 Y13.865 B20.358
G0 X17.831 Y13.851
;TYPE:WALL-OUTER
G1 X0.908 Y-15.461 B20.415 F150.0
G1 X-0.908 Y-15.461 B20.418
G1 X-17.831 Y13.851 B20.474
G1 X-17.026 Y15.462 B20.477
G1 X17.026 Y15.461 B20.534
G1 X17.831 Y13.851 B20.537
G0 X17.731 Y13.678 F300.0
G0 X16.945 Y13.879
;TYPE:SKIN
G1 X16.544 Y14.68 B20.538 F150.0
G1 X-16.544 Y14.682 B20.593
G1 X-16.945 Y13.879 B20.595
G1 X-0.457 Y-14.681 B20.65
G1 X0.457 Y-14.681 B20.651
G1 X16.945 Y13.879 B20.706
G0 X0.227 Y-14.48 F300.0
G1 X0.495 Y-14.212 B20.707 F150.0
G0 X-0.337 Y-14.48 F300.0
G1 X1.268 Y-12.873 B20.711 F150.0
G1 X1.338 Y-12.803 B20.711
G0 X2.04 Y-11.535 F300.0
G1 X-0.547 Y-14.123 B20.717 F150.0
G0 X-0.754 Y-13.765 F300.0
G1 X2.813 Y-10.197 B20.725 F150.0
G1 X2.883 Y-10.127 B20.726
G0 X3.586 Y-8.858 F300.0
G1 X-0.96 Y-13.406 B20.736 F150.0
G0 X-1.168 Y-13.047 F300.0
G1 X4.359 Y-7.52 B20.749 F150.0
G1 X4.429 Y-7.45 B20.749
G0 X5.131 Y-6.182 F300.0
G1 X-1.375 Y-12.689 B20.765 F150.0
G0 X-1.582 Y-12.33 F300.0
G1 X5.904 Y-4.843 B20.782 F150.0
G1 X5.974 Y-4.773 B20.783
G0 X6.677 Y-3.505 F300.0
G1 X-1.789 Y-11.972 B20.802 F150.0
G0 X-1.996 Y-11.613 F300.0
G1 X7.449 Y-2.167 B20.825 F150.0
G1 X7.519 Y-2.097 B20.825
G0 X8.222 Y-0.828 F300.0
G1 X-2.203 Y-11.254 B20.849 F150.0
G0 X-2.41 Y-10.895 F300.0
G1 X8.995 Y0.509 B20.876 F150.0
G1 X9.065 Y0.579 B20.877
G0 X9.767 Y1.848 F300.0
G1 X-2.617 Y-10.537 B20.906 F150.0
G0 X-2.824 Y-10.178 F300.0
G1 X10.54 Y3.186 B20.937 F150.0
G1 X10.61 Y3.256 B20.937
G0 X11.313 Y4.524 F300.0
G1 X-3.032 Y-9.82 B20.971 F150.0
G0 X-3.238 Y-9.461 F300.0
G1 X12.085 Y5.863 B21.007 F150.0
G1 X12.155 Y5.933 B21.007
G0 X12.858 Y7.201 F300.0
G1 X-3.445 Y-9.102 B21.046 F150.0
G0 X-3.652 Y-8.744 F300.0
G1 X13.63 Y8.539 B21.087 F150.0
G1 X13.7 Y8.609 B21.087
G0 X14.403 Y9.878 F300.0
G1 X-3.86 Y-8.385 B21.13 F150.0
G0 X-4.067 Y-8.027 F300.0
G1 X15.176 Y11.216 B21.175 F150.0
G1 X15.246 Y11.286 B21.175
G0 X15.948 Y12.554 F300.0
G1 X-4.273 Y-7.667 B21.223 F150.0
G0 X-4.48 Y-7.309 F300.0
G1 X16.716 Y13.888 B21.273 F150.0
G0 X16.527 Y14.265 F300.0
G1 X-4.688 Y-6.95 B21.323 F150.0
G0 X-4.895 Y-6.592 F300.0
G1 X16.177 Y14.48 B21.372 F150.0
G0 X15.611 Y14.48 F300.0
G1 X-5.102 Y-6.233 B21.421 F150.0
G0 X-5.309 Y-5.875 F300.0
G1 X15.045 Y14.48 B21.469 F150.0
G0 X14.48 Y14.48 F300.0
G1 X-5.516 Y-5.516 B21.516 F150.0
G0 X-5.723 Y-5.157 F300.0
G1 X13.914 Y14.48 B21.563 F150.0
G0 X13.348 Y14.48 F300.0
G1 X-5.93 Y-4.799 B21.608 F150.0
G0 X-6.137 Y-4.44 F300.0
G1 X12.783 Y14.48 B21.653 F150.0
G0 X12.217 Y14.48 F300.0
G1 X-6.344 Y-4.082 B21.696 F150.0
G0 X-6.551 Y-3.722 F300.0
G1 X11.651 Y14.48 B21.739 F150.0
G0 X11.086 Y14.48 F300.0
G1 X-6.758 Y-3.364 B21.781 F150.0
G0 X-6.965 Y-3.005 F300.0
G1 X10.52 Y14.48 B21.822 F150.0
G0 X9.954 Y14.48 F300.0
G1 X-7.172 Y-2.647 B21.863 F150.0
G0 X-7.38 Y-2.288 F300.0
G1 X9.388 Y14.48 B21.902 F150.0
G0 X8.823 Y14.48 F300.0
G1 X-7.586 Y-1.929 B21.941 F150.0
G0 X-7.793 Y-1.571 F300.0
G1 X8.257 Y14.48 B21.979 F150.0
G0 X7.691 Y14.48 F300.0
G1 X-8.0 Y-1.212 B22.016 F150.0
G0 X-8.208 Y-0.854 F300.0
G1 X7.126 Y14.48 B22.052 F150.0
G0 X6.56 Y14.48 F300.0
G1 X-8.415 Y-0.495 B22.087 F150.0
G0 X-8.622 Y-0.137 F300.0
G1 X5.994 Y14.48 B22.122 F150.0
G0 X5.429 Y14.48 F300.0
G1 X-8.828 Y0.222 B22.155 F150.0
G0 X-9.036 Y0.58 F300.0
G1 X4.864 Y14.48 B22.188 F150.0
G0 X4.298 Y14.48 F300.0
G1 X-9.243 Y0.939 B22.22 F150.0
G0 X-9.45 Y1.297 F300.0
G1 X3.732 Y14.48 B22.251 F150.0
G0 X3.167 Y14.48 F300.0
G1 X-9.657 Y1.656 B22.281 F150.0
G0 X-9.864 Y2.015 F300.0
G1 X2.601 Y14.48 B22.31 F150.0
G0 X2.035 Y14.48 F300.0
G1 X-10.071 Y2.373 B22.339 F150.0
G0 X-10.278 Y2.732 F300.0
G1 X1.47 Y14.48 B22.367 F150.0
G0 X0.904 Y14.48 F300.0
G1 X-10.485 Y3.09 B22.393 F150.0
G0 X-10.692 Y3.449 F300.0
G1 X0.338 Y14.48 B22.419 F150.0
G0 X-0.226 Y14.48 F300.0
G1 X-10.899 Y3.808 B22.445 F150.0
G0 X-11.106 Y4.166 F300.0
G1 X-0.792 Y14.48 B22.469 F150.0
G0 X-1.358 Y14.48 F300.0
G1 X-11.313 Y4.525 B22.492 F150.0
G0 X-11.52 Y4.883 F300.0
G1 X-1.924 Y14.48 B22.515 F150.0
G0 X-2.489 Y14.48 F300.0
G1 X-11.728 Y5.242 B22.537 F150.0
G0 X-11.935 Y5.6 F300.0
G1 X-3.055 Y14.48 B22.558 F150.0
G0 X-3.621 Y14.48 F300.0
G1 X-12.141 Y5.96 B22.578 F150.0
G0 X-12.348 Y6.318 F300.0
G1 X-4.186 Y14.48 B22.597 F150.0
G0 X-4.752 Y14.48 F300.0
G1 X-12.556 Y6.677 B22.615 F150.0
G0 X-12.763 Y7.035 F300.0
G1 X-5.318 Y14.48 B22.633 F150.0
G0 X-5.883 Y14.481 F300.0
G1 X-12.97 Y7.394 B22.65 F150.0
G0 X-13.176 Y7.753 F300.0
G1 X-6.448 Y14.481 B22.665 F150.0
G0 X-7.014 Y14.481 F300.0
G1 X-13.384 Y8.111 B22.68 F150.0
G0 X-13.591 Y8.47 F300.0
G1 X-7.58 Y14.481 B22.695 F150.0
G0 X-8.145 Y14.481 F300.0
G1 X-13.798 Y8.828 B22.708 F150.0
G0 X-14.005 Y9.187 F300.0
G1 X-8.711 Y14.481 B22.72 F150.0
G0 X-9.277 Y14.481 F300.0
G1 X-14.212 Y9.546 B22.732 F150.0
G0 X-14.419 Y9.905 F300.0
G1 X-9.842 Y14.481 B22.743 F150.0
G0 X-10.408 Y14.481 F300.0
G1 X-14.626 Y10.263 B22.753 F150.0
G0 X-14.833 Y10.622 F300.0
G1 X-10.974 Y14.481 B22.762 F150.0
G0 X-11.539 Y14.481 F300.0
G1 X-15.04 Y10.98 B22.77 F150.0
G0 X-15.248 Y11.339 F300.0
G1 X-12.105 Y14.481 B22.778 F150.0
G0 X-12.671 Y14.481 F300.0
G1 X-15.454 Y11.698 B22.784 F150.0
G0 X-15.661 Y12.056 F300.0
G1 X-13.237 Y14.481 B22.79 F150.0
G0 X-13.802 Y14.481 F300.0
G1 X-15.868 Y12.415 B22.795 F150.0
G0 X-16.076 Y12.773 F300.0
G1 X-14.368 Y14.481 B22.799 F150.0
G0 X-14.934 Y14.481 F300.0
G1 X-16.283 Y13.132 B22.802 F150.0
G0 X-16.489 Y13.491 F300.0
G1 X-15.499 Y14.481 B22.804 F150.0
G0 X-16.065 Y14.481 F300.0
G1 X-16.696 Y13.85 B22.806 F150.0
G1 X-16.766 Y13.78 B22.806
G0 X-16.67 Y13.836 F300.0
;MESH:NONMESH
G0 X-16.67 Y13.836 Z1.0 F120.0
G0 X17.052 Y13.872 F300.0
G0 X17.377 Y13.865
;TIME_ELAPSED:5564.360631
;LAYER:7
;TYPE:WALL-INNER
;MESH:Tri_v2_small.stl
G1 X0.677 Y-15.061 B22.861
G1 X-0.677 Y-15.061 B22.864
G1 X-17.377 Y13.865 B22.919
G1 X-16.779 Y15.062 B22.922
G1 X16.778 Y15.061 B22.978
G1 X17.377 Y13.865 B22.98
G0 X17.831 Y13.851
;TYPE:WALL-OUTER
G1 X0.908 Y-15.461 B23.036 F150.0
G1 X-0.908 Y-15.461 B23.039
G1 X-17.831 Y13.851 B23.096
G1 X-17.026 Y15.462 B23.099
G1 X17.026 Y15.461 B23.155
G1 X17.831 Y13.851 B23.158
G0 X17.731 Y13.678 F300.0
G0 X16.945 Y13.879
;TYPE:SKIN
G1 X16.544 Y14.68 B23.16 F150.0
G1 X-16.544 Y14.682 B23.215
G1 X-16.945 Y13.879 B23.216
G1 X-0.457 Y-14.681 B23.271
G1 X0.457 Y-14.681 B23.273
G1 X16.945 Y13.879 B23.328
G0 X16.066 Y14.48 F300.0
G1 X16.696 Y13.85 B23.329 F150.0
G0 X16.489 Y13.492 F300.0
G1 X15.5 Y14.48 B23.332 F150.0
G0 X14.934 Y14.48 F300.0
G1 X16.282 Y13.133 B23.335 F150.0
G0 X16.075 Y12.774 F300.0
G1 X14.369 Y14.48 B23.339 F150.0
G0 X13.803 Y14.48 F300.0
G1 X15.868 Y12.416 B23.344 F150.0
G0 X15.661 Y12.057 F300.0
G1 X13.237 Y14.48 B23.349 F150.0
G0 X12.672 Y14.48 F300.0
G1 X15.453 Y11.699 B23.356 F150.0
G0 X15.247 Y11.339 F300.0
G1 X12.106 Y14.48 B23.363 F150.0
G0 X11.54 Y14.48 F300.0
G1 X15.04 Y10.981 B23.372 F150.0
G0 X14.832 Y10.622 F300.0
G1 X10.975 Y14.48 B23.381 F150.0
G0 X10.409 Y14.48 F300.0
G1 X14.625 Y10.264 B23.391 F150.0
G0 X14.418 Y9.905 F300.0
G1 X9.843 Y14.48 B23.401 F150.0
G0 X9.277 Y14.48 F300.0
G1 X14.211 Y9.547 B23.413 F150.0
G0 X14.004 Y9.188 F300.0
G1 X8.712 Y14.48 B23.425 F150.0
G0 X8.146 Y14.48 F300.0
G1 X13.797 Y8.829 B23.439 F150.0
G0 X13.59 Y8.471 F300.0
G1 X7.58 Y14.48 B23.453 F150.0
G0 X7.015 Y14.48 F300.0
G1 X13.383 Y8.112 B23.468 F150.0
G0 X13.176 Y7.754 F300.0
G1 X6.449 Y14.48 B23.484 F150.0
G0 X5.883 Y14.48 F300.0
G1 X12.969 Y7.394 B23.5 F150.0
G0 X12.762 Y7.036 F300.0
G1 X5.317 Y14.481 B23.518 F150.0
G0 X4.751 Y14.481 F300.0
G1 X12.555 Y6.677 B23.536 F150.0
G0 X12.348 Y6.319 F300.0
G1 X4.186 Y14.481 B23.556 F150.0
G0 X3.62 Y14.481 F300.0
G1 X12.141 Y5.96 B23.576 F150.0
G0 X11.934 Y5.601 F300.0
G1 X3.054 Y14.481 B23.597 F150.0
G0 X2.489 Y14.481 F300.0
G1 X11.727 Y5.243 B23.618 F150.0
G0 X11.52 Y4.884 F300.0
G1 X1.923 Y14.481 B23.641 F150.0
G0 X1.357 Y14.481 F300.0
G1 X11.313 Y4.526 B23.664 F150.0
G0 X11.105 Y4.167 F300.0
G1 X0.791 Y14.481 B23.689 F150.0
G0 X0.226 Y14.481 F300.0
G1 X10.898 Y3.809 B23.714 F150.0
G0 X10.692 Y3.449 F300.0
G1 X-0.339 Y14.481 B23.74 F150.0
G0 X-0.905 Y14.481 F300.0
G1 X10.484 Y3.091 B23.767 F150.0
G0 X10.277 Y2.732 F300.0
G1 X-1.47 Y14.481 B23.794 F150.0
G0 X-2.036 Y14.481 F300.0
G1 X10.07 Y2.374 B23.823 F150.0
G0 X9.863 Y2.015 F300.0
G1 X-2.602 Y14.481 B23.852 F150.0
G0 X-3.167 Y14.481 F300.0
G1 X9.656 Y1.656 B23.883 F150.0
G0 X9.449 Y1.298 F300.0
G1 X-3.733 Y14.481 B23.914 F150.0
G0 X-4.299 Y14.481 F300.0
G1 X9.242 Y0.939 B23.945 F150.0
G0 X9.035 Y0.581 F300.0
G1 X-4.864 Y14.481 B23.978 F150.0
G0 X-5.43 Y14.481 F300.0
G1 X8.828 Y0.222 B24.012 F150.0
G0 X8.621 Y-0.136 F300.0
G1 X-5.996 Y14.482 B24.046 F150.0
G0 X-6.562 Y14.482 F300.0
G1 X8.414 Y-0.494 B24.082 F150.0
G0 X8.207 Y-0.853 F300.0
G1 X-7.128 Y14.482 B24.118 F150.0
G0 X-7.694 Y14.482 F300.0
G1 X8.0 Y-1.211 B24.155 F150.0
G0 X7.793 Y-1.57 F300.0
G1 X-8.259 Y14.482 B24.192 F150.0
G0 X-8.825 Y14.482 F300.0
G1 X7.585 Y-1.928 B24.231 F150.0
G0 X7.379 Y-2.288 F300.0
G1 X-9.391 Y14.482 B24.271 F150.0
G0 X-9.956 Y14.482 F300.0
G1 X7.172 Y-2.646 B24.311 F150.0
G0 X6.965 Y-3.005 F300.0
G1 X-10.522 Y14.482 B24.352 F150.0
G0 X-11.088 Y14.482 F300.0
G1 X6.757 Y-3.363 B24.394 F150.0
G0 X6.55 Y-3.722 F300.0
G1 X-11.653 Y14.482 B24.437 F150.0
G0 X-12.219 Y14.482 F300.0
G1 X6.344 Y-4.081 B24.481 F150.0
G0 X6.136 Y-4.439 F300.0
G1 X-12.785 Y14.482 B24.525 F150.0
G0 X-13.35 Y14.482 F300.0
G1 X5.929 Y-4.798 B24.571 F150.0
G0 X5.722 Y-5.156 F300.0
G1 X-13.916 Y14.482 B24.617 F150.0
G0 X-14.482 Y14.482 F300.0
G1 X5.515 Y-5.515 B24.664 F150.0
G0 X5.308 Y-5.874 F300.0
G1 X-15.047 Y14.482 B24.712 F150.0
G0 X-15.613 Y14.482 F300.0
G1 X5.101 Y-6.233 B24.761 F150.0
G0 X4.894 Y-6.591 F300.0
G1 X-16.179 Y14.482 B24.811 F150.0
G0 X-16.527 Y14.265 F300.0
G1 X4.687 Y-6.95 B24.861 F150.0
G0 X4.48 Y-7.308 F300.0
G1 X-16.716 Y13.887 B24.911 F150.0
G1 X-16.786 Y13.957 B24.911
G0 X-15.948 Y12.553 F300.0
G1 X4.273 Y-7.667 B24.958 F150.0
G0 X4.066 Y-8.026 F300.0
G1 X-15.175 Y11.216 B25.004 F150.0
G1 X-15.245 Y11.286 B25.004
G0 X-14.403 Y9.877 F300.0
G1 X3.859 Y-8.384 B25.047 F150.0
G0 X3.652 Y-8.743 F300.0
G1 X-13.63 Y8.539 B25.088 F150.0
G1 X-13.7 Y8.609 B25.088
G0 X-12.857 Y7.2 F300.0
G1 X3.445 Y-9.101 B25.126 F150.0
G0 X3.237 Y-9.46 F300.0
G1 X-12.085 Y5.862 B25.162 F150.0
G1 X-12.155 Y5.932 B25.162
G0 X-11.312 Y4.524 F300.0
G1 X3.031 Y-9.819 B25.196 F150.0
G0 X2.824 Y-10.178 F300.0
G1 X-10.539 Y3.185 B25.228 F150.0
G1 X-10.609 Y3.255 B25.228
G0 X-9.767 Y1.847 F300.0
G1 X2.617 Y-10.536 B25.257 F150.0
G0 X2.409 Y-10.895 F300.0
G1 X-8.994 Y0.509 B25.284 F150.0
G1 X-9.064 Y0.579 B25.284
G0 X-8.221 Y-0.829 F300.0
G1 X2.202 Y-11.253 B25.309 F150.0
G0 X1.996 Y-11.612 F300.0
G1 X-7.448 Y-2.167 B25.331 F150.0
G1 X-7.518 Y-2.097 B25.331
G0 X-6.676 Y-3.505 F300.0
G1 X1.788 Y-11.971 B25.351 F150.0
G0 X1.581 Y-12.329 F300.0
G1 X-5.903 Y-4.844 B25.369 F150.0
G1 X-5.973 Y-4.774 B25.369
G0 X-5.13 Y-6.182 F300.0
G1 X1.374 Y-12.688 B25.384 F150.0
G0 X1.167 Y-13.046 F300.0
G1 X-4.358 Y-7.52 B25.397 F150.0
G1 X-4.428 Y-7.45 B25.397
G0 X-3.585 Y-8.859 F300.0
G1 X0.96 Y-13.405 B25.408 F150.0
G0 X0.753 Y-13.764 F300.0
G1 X-2.812 Y-10.197 B25.416 F150.0
G1 X-2.882 Y-10.127 B25.417
G0 X-2.04 Y-11.536 F300.0
G1 X0.546 Y-14.123 B25.423 F150.0
G0 X0.337 Y-14.48 F300.0
G1 X-1.267 Y-12.874 B25.426 F150.0
G1 X-1.337 Y-12.804 B25.427
G0 X-0.494 Y-14.212 F300.0
G1 X-0.227 Y-14.48 B25.427 F150.0
G0 X-0.227 Y-14.462 F300.0
;MESH:NONMESH
G0 X-0.227 Y-14.462 Z1.1 F120.0
G0 X-6.162 Y-4.964 F300.0
G0 X-6.279 Y-5.033
;TIME_ELAPSED:6185.928102
;LAYER:8
;TYPE:FILL
;MESH:Tri_v2_small.stl
G1 X1.682 Y-12.996 B25.446
G1 X1.752 Y-13.066 B25.446
G0 X1.551 Y-12.95
G0 X-1.564 Y-12.927
G0 X-1.683 Y-12.997
G1 X6.28 Y-5.033 B25.465
G1 X6.35 Y-4.963 B25.465
G0 X6.209 Y-4.882
G0 X5.705 Y-5.755
G0 X5.823 Y-5.823
G1 X-14.901 Y14.901 B25.514
G1 X-14.971 Y14.971 B25.514
G0 X-14.971 Y14.762
G0 X-13.382 Y14.762
G0 X-13.382 Y14.901
G1 X-16.176 Y12.107 B25.521
G1 X-16.246 Y12.037 B25.521
G0 X-16.046 Y12.154
G0 X-13.988 Y8.59
G0 X-14.106 Y8.521
G1 X-7.725 Y14.901 B25.536
G1 X-7.655 Y14.971 B25.536
G0 X-7.655 Y14.762
G0 X-9.244 Y14.762
G0 X-9.244 Y14.901
G1 X7.894 Y-2.237 B25.576
G1 X7.964 Y-2.307 B25.577
G0 X7.763 Y-2.191
G0 X9.846 Y1.417
G0 X9.964 Y1.349
G1 X-3.587 Y14.901 B25.609
G1 X-3.657 Y14.971 B25.609
G0 X-3.657 Y14.762
G0 X-2.068 Y14.762
G0 X-2.068 Y14.901
G1 X-12.035 Y4.934 B25.632
G1 X-12.105 Y4.864 B25.632
G0 X-11.904 Y4.981
G0 X-13.889 Y8.418
G0 X-14.006 Y8.349
G1 X3.753 Y-9.41 B25.674
G1 X3.823 Y-9.48 B25.674
G0 X3.621 Y-9.364
G0 X-3.635 Y-9.34
G0 X-3.754 Y-9.41
G1 X14.007 Y8.35 B25.716
G1 X14.105 Y8.522 B25.717
G1 X7.725 Y14.901 B25.732
G1 X7.655 Y14.971 B25.732
G0 X7.655 Y14.762
G0 X9.244 Y14.762
G0 X9.244 Y14.901
G1 X-7.894 Y-2.237 B25.772
G1 X-7.964 Y-2.307 B25.772
G0 X-7.764 Y-2.19
G0 X-9.847 Y1.417
G0 X-9.965 Y1.348
G1 X3.587 Y14.901 B25.804
G1 X3.657 Y14.971 B25.804
G0 X3.657 Y14.762
G0 X2.068 Y14.762
G0 X2.068 Y14.901
G1 X12.034 Y4.935 B25.828
G1 X12.104 Y4.865 B25.828
G0 X11.903 Y4.98
G0 X16.058 Y12.175
G0 X16.175 Y12.108
G1 X13.382 Y14.901 B25.835
G1 X13.312 Y14.971 B25.835
G0 X13.312 Y14.762
G0 X14.901 Y14.762
G0 X14.901 Y14.901
G1 X-5.824 Y-5.824 B25.884
G1 X-5.894 Y-5.894 B25.884
G0 X-5.693 Y-5.777
G0 X17.052 Y13.872
G0 X17.377 Y13.865
;TYPE:WALL-INNER
G1 X0.677 Y-15.061 B25.939
G1 X-0.677 Y-15.061 B25.942
G1 X-17.377 Y13.865 B25.997
G1 X-16.779 Y15.062 B26.0
G1 X16.778 Y15.061 B26.055
G1 X17.377 Y13.865 B26.058
G0 X17.831 Y13.851
;TYPE:WALL-OUTER
G1 X0.908 Y-15.461 B26.114 F150.0
G1 X-0.908 Y-15.461 B26.117
G1 X-17.831 Y13.851 B26.173
G1 X-17.026 Y15.462 B26.176
G1 X17.026 Y15.461 B26.233
G1 X17.831 Y13.851 B26.236
G0 X17.731 Y13.678 F300.0
G0 X16.71 Y13.905
;MESH:NONMESH
G0 X16.71 Y13.905 Z1.2 F120.0
G0 X-6.162 Y-4.964 F300.0
G0 X-6.279 Y-5.033
;TIME_ELAPSED:6327.071568
;LAYER:9
;TYPE:FILL
;MESH:Tri_v2_small.stl
G1 X1.682 Y-12.996 B26.255
G1 X1.752 Y-13.066 B26.255
G0 X1.551 Y-12.95
G0 X-1.564 Y-12.927
G0 X-1.683 Y-12.997
G1 X6.28 Y-5.033 B26.274
G1 X6.35 Y-4.963 B26.274
G0 X6.209 Y-4.882
G0 X5.705 Y-5.755
G0 X5.823 Y-5.823
G1 X-14.901 Y14.901 B26.323
G1 X-14.971 Y14.971 B26.323
G0 X-14.971 Y14.762
G0 X-13.382 Y14.762
G0 X-13.382 Y14.901
G1 X-16.176 Y12.107 B26.33
G1 X-16.246 Y12.037 B26.33
G0 X-16.046 Y12.154
G0 X-13.988 Y8.59
G0 X-14.106 Y8.521
G1 X-7.725 Y14.901 B26.345
G1 X-7.655 Y14.971 B26.345
G0 X-7.655 Y14.762
G0 X-9.244 Y14.762
G0 X-9.244 Y14.901
G1 X7.894 Y-2.237 B26.385
G1 X7.964 Y-2.307 B26.386
G0 X7.763 Y-2.191
G0 X9.846 Y1.417
G0 X9.964 Y1.349
G1 X-3.587 Y14.901 B26.417
G1 X-3.657 Y14.971 B26.418
G0 X-3.657 Y14.762
G0 X-2.068 Y14.762
G0 X-2.068 Y14.901
G1 X-12.035 Y4.934 B26.441
G1 X-12.105 Y4.864 B26.441
G0 X-11.904 Y4.981
G0 X-13.889 Y8.418
G0 X-14.006 Y8.349
G1 X3.753 Y-9.41 B26.483
G1 X3.823 Y-9.48 B26.483
G0 X3.621 Y-9.364
G0 X-3.635 Y-9.34
G0 X-3.754 Y-9.41
G1 X14.007 Y8.35 B26.525
G1 X14.105 Y8.522 B26.525
G1 X7.725 Y14.901 B26.54
G1 X7.655 Y14.971 B26.541
G0 X7.655 Y14.762
G0 X9.244 Y14.762
G0 X9.244 Y14.901
G1 X-7.894 Y-2.237 B26.581
G1 X-7.964 Y-2.307 B26.581
G0 X-7.764 Y-2.19
G0 X-9.847 Y1.417
G0 X-9.965 Y1.348
G1 X3.587 Y14.901 B26.613
G1 X3.657 Y14.971 B26.613
G0 X3.657 Y14.762
G0 X2.068 Y14.762
G0 X2.068 Y14.901
G1 X12.034 Y4.935 B26.637
G1 X12.104 Y4.865 B26.637
G0 X11.903 Y4.98
G0 X16.058 Y12.175
G0 X16.175 Y12.108
G1 X13.382 Y14.901 B26.643
G1 X13.312 Y14.971 B26.644
G0 X13.312 Y14.762
G0 X14.901 Y14.762
G0 X14.901 Y14.901
G1 X-5.824 Y-5.824 B26.692
G1 X-5.894 Y-5.894 B26.693
G0 X-5.693 Y-5.777
G0 X17.052 Y13.872
G0 X17.377 Y13.865
;TYPE:WALL-INNER
G1 X0.677 Y-15.061 B26.748
G1 X-0.677 Y-15.061 B26.751
G1 X-17.377 Y13.865 B26.806
G1 X-16.779 Y15.062 B26.808
G1 X16.778 Y15.061 B26.864
G1 X17.377 Y13.865 B26.867
G0 X17.831 Y13.851
;TYPE:WALL-OUTER
G1 X0.908 Y-15.461 B26.923 F150.0
G1 X-0.908 Y-15.461 B26.926
G1 X-17.831 Y13.851 B26.982
G1 X-17.026 Y15.462 B26.985
G1 X17.026 Y15.461 B27.042
G1 X17.831 Y13.851 B27.045
G0 X17.731 Y13.678 F300.0
G0 X16.71 Y13.905
;MESH:NONMESH
G0 X16.71 Y13.905 Z1.3 F120.0
G0 X-6.162 Y-4.964 F300.0
G0 X-6.279 Y-5.033
;TIME_ELAPSED:6468.215035
;LAYER:10
;TYPE:FILL
;MESH:Tri_v2_small.stl
G1 X1.682 Y-12.996 B27.064
G1 X1.752 Y-13.066 B27.064
G0 X1.551 Y-12.95
G0 X-1.564 Y-12.927
G0 X-1.683 Y-12.997
G1 X6.28 Y-5.033 B27.083
G1 X6.35 Y-4.963 B27.083
G0 X6.209 Y-4.882
G0 X5.705 Y-5.755
G0 X5.823 Y-5.823
G1 X-14.901 Y14.901 B27.132
G1 X-14.971 Y14.971 B27.132
G0 X-14.971 Y14.762
G0 X-13.382 Y14.762
G0 X-13.382 Y14.901
G1 X-16.176 Y12.107 B27.139
G1 X-16.246 Y12.037 B27.139
G0 X-16.046 Y12.154
G0 X-13.988 Y8.59
G0 X-14.106 Y8.521
G1 X-7.725 Y14.901 B27.154
G1 X-7.655 Y14.971 B27.154
G0 X-7.655 Y14.762
G0 X-9.244 Y14.762
G0 X-9.244 Y14.901
G1 X7.894 Y-2.237 B27.194
G1 X7.964 Y-2.307 B27.194
G0 X7.763 Y-2.191
G0 X9.846 Y1.417
G0 X9.964 Y1.349
G1 X-3.587 Y14.901 B27.226
G1 X-3.657 Y14.971 B27.227
G0 X-3.657 Y14.762
G0 X-2.068 Y14.762
G0 X-2.068 Y14.901
G1 X-12.035 Y4.934 B27.25
G1 X-12.105 Y4.864 B27.25
G0 X-11.904 Y4.981
G0 X-13.889 Y8.418
G0 X-14.006 Y8.349
G1 X3.753 Y-9.41 B27.292
G1 X3.823 Y-9.48 B27.292
G0 X3.621 Y-9.364
G0 X-3.635 Y-9.34
G0 X-3.754 Y-9.41
G1 X14.007 Y8.35 B27.334
G1 X14.105 Y8.522 B27.334
G1 X7.725 Y14.901 B27.349
G1 X7.655 Y14.971 B27.35
G0 X7.655 Y14.762
G0 X9.244 Y14.762
G0 X9.244 Y14.901
G1 X-7.894 Y-2.237 B27.39
G1 X-7.964 Y-2.307 B27.39
G0 X-7.764 Y-2.19
G0 X-9.847 Y1.417
G0 X-9.965 Y1.348
G1 X3.587 Y14.901 B27.422
G1 X3.657 Y14.971 B27.422
G0 X3.657 Y14.762
G0 X2.068 Y14.762
G0 X2.068 Y14.901
G1 X12.034 Y4.935 B27.446
G1 X12.104 Y4.865 B27.446
G0 X11.903 Y4.98
G0 X16.058 Y12.175
G0 X16.175 Y12.108
G1 X13.382 Y14.901 B27.452
G1 X13.312 Y14.971 B27.453
G0 X13.312 Y14.762
G0 X14.901 Y14.762
G0 X14.901 Y14.901
G1 X-5.824 Y-5.824 B27.501
G1 X-5.894 Y-5.894 B27.502
G0 X-5.693 Y-5.777
G0 X17.052 Y13.872
G0 X17.377 Y13.865
;TYPE:WALL-INNER
G1 X0.677 Y-15.061 B27.557
G1 X-0.677 Y-15.061 B27.559
G1 X-17.377 Y13.865 B27.615
G1 X-16.779 Y15.062 B27.617
G1 X16.778 Y15.061 B27.673
G1 X17.377 Y13.865 B27.675
G0 X17.831 Y13.851
;TYPE:WALL-OUTER
G1 X0.908 Y-15.461 B27.732 F150.0
G1 X-0.908 Y-15.461 B27.735
G1 X-17.831 Y13.851 B27.791
G1 X-17.026 Y15.462 B27.794
G1 X17.026 Y15.461 B27.851
G1 X17.831 Y13.851 B27.854
G0 X17.731 Y13.678 F300.0
G0 X16.71 Y13.905
;MESH:NONMESH
G0 X16.71 Y13.905 Z1.4 F120.0
G0 X-6.162 Y-4.964 F300.0
G0 X-6.279 Y-5.033
;TIME_ELAPSED:6609.358502
;LAYER:11
;TYPE:FILL
;MESH:Tri_v2_small.stl
G1 X1.682 Y-12.996 B27.873
G1 X1.752 Y-13.066 B27.873
G0 X1.551 Y-12.95
G0 X-1.564 Y-12.927
G0 X-1.683 Y-12.997
G1 X6.28 Y-5.033 B27.892
G1 X6.35 Y-4.963 B27.892
G0 X6.209 Y-4.882
G0 X5.705 Y-5.755
G0 X5.823 Y-5.823
G1 X-14.901 Y14.901 B27.941
G1 X-14.971 Y14.971 B27.941
G0 X-14.971 Y14.762
G0 X-13.382 Y14.762
G0 X-13.382 Y14.901
G1 X-16.176 Y12.107 B27.947
G1 X-16.246 Y12.037 B27.948
G0 X-16.046 Y12.154
G0 X-13.988 Y8.59
G0 X-14.106 Y8.521
G1 X-7.725 Y14.901 B27.963
G1 X-7.655 Y14.971 B27.963
G0 X-7.655 Y14.762
G0 X-9.244 Y14.762
G0 X-9.244 Y14.901
G1 X7.894 Y-2.237 B28.003
G1 X7.964 Y-2.307 B28.003
G0 X7.763 Y-2.191
G0 X9.846 Y1.417
G0 X9.964 Y1.349
G1 X-3.587 Y14.901 B28.035
G1 X-3.657 Y14.971 B28.035
G0 X-3.657 Y14.762
G0 X-2.068 Y14.762
G0 X-2.068 Y14.901
G1 X-12.035 Y4.934 B28.059
G1 X-12.105 Y4.864 B28.059
G0 X-11.904 Y4.981
G0 X-13.889 Y8.418
G0 X-14.006 Y8.349
G1 X3.753 Y-9.41 B28.101
G1 X3.823 Y-9.48 B28.101
G0 X3.621 Y-9.364
G0 X-3.635 Y-9.34
G0 X-3.754 Y-9.41
G1 X14.007 Y8.35 B28.143
G1 X14.105 Y8.522 B28.143
G1 X7.725 Y14.901 B28.158
G1 X7.655 Y14.971 B28.158
G0 X7.655 Y14.762
G0 X9.244 Y14.762
G0 X9.244 Y14.901
G1 X-7.894 Y-2.237 B28.199
G1 X-7.964 Y-2.307 B28.199
G0 X-7.764 Y-2.19
G0 X-9.847 Y1.417
G0 X-9.965 Y1.348
G1 X3.587 Y14.901 B28.231
G1 X3.657 Y14.971 B28.231
G0 X3.657 Y14.762
G0 X2.068 Y14.762
G0 X2.068 Y14.901
G1 X12.034 Y4.935 B28.255
G1 X12.104 Y4.865 B28.255
G0 X11.903 Y4.98
G0 X16.058 Y12.175
G0 X16.175 Y12.108
G1 X13.382 Y14.901 B28.261
G1 X13.312 Y14.971 B28.261
G0 X13.312 Y14.762
G0 X14.901 Y14.762
G0 X14.901 Y14.901
G1 X-5.824 Y-5.824 B28.31
G1 X-5.894 Y-5.894 B28.31
G0 X-5.693 Y-5.777
G0 X17.052 Y13.872
G0 X17.377 Y13.865
;TYPE:WALL-INNER
G1 X0.677 Y-15.061 B28.366
G1 X-0.677 Y-15.061 B28.368
G1 X-17.377 Y13.865 B28.424
G1 X-16.779 Y15.062 B28.426
G1 X16.778 Y15.061 B28.482
G1 X17.377 Y13.865 B28.484
G0 X17.831 Y13.851
;TYPE:WALL-OUTER
G1 X0.908 Y-15.461 B28.541 F150.0
G1 X-0.908 Y-15.461 B28.544
G1 X-17.831 Y13.851 B28.6
G1 X-17.026 Y15.462 B28.603
G1 X17.026 Y15.461 B28.66
G1 X17.831 Y13.851 B28.663
G0 X17.731 Y13.678 F300.0
G0 X16.71 Y13.905
;MESH:NONMESH
G0 X16.71 Y13.905 Z1.5 F120.0
G0 X-6.162 Y-4.964 F300.0
G0 X-6.279 Y-5.033
;TIME_ELAPSED:6750.501969
;LAYER:12
;TYPE:FILL
;MESH:Tri_v2_small.stl
G1 X1.682 Y-12.996 B28.682
G1 X1.752 Y-13.066 B28.682
G0 X1.551 Y-12.95
G0 X-1.564 Y-12.927
G0 X-1.683 Y-12.997
G1 X6.28 Y-5.033 B28.701
G1 X6.35 Y-4.963 B28.701
G0 X6.209 Y-4.882
G0 X5.705 Y-5.755
G0 X5.823 Y-5.823
G1 X-14.901 Y14.901 B28.75
G1 X-14.971 Y14.971 B28.75
G0 X-14.971 Y14.762
G0 X-13.382 Y14.762
G0 X-13.382 Y14.901
G1 X-16.176 Y12.107 B28.756
G1 X-16.246 Y12.037 B28.756
G0 X-16.046 Y12.154
G0 X-13.988 Y8.59
G0 X-14.106 Y8.521
G1 X-7.725 Y14.901 B28.772
G1 X-7.655 Y14.971 B28.772
G0 X-7.655 Y14.762
G0 X-9.244 Y14.762
G0 X-9.244 Y14.901
G1 X7.894 Y-2.237 B28.812
G1 X7.964 Y-2.307 B28.812
G0 X7.763 Y-2.191
G0 X9.846 Y1.417
G0 X9.964 Y1.349
G1 X-3.587 Y14.901 B28.844
G1 X-3.657 Y14.971 B28.844
G0 X-3.657 Y14.762
G0 X-2.068 Y14.762
G0 X-2.068 Y14.901
G1 X-12.035 Y4.934 B28.868
G1 X-12.105 Y4.864 B28.868
G0 X-11.904 Y4.981
G0 X-13.889 Y8.418
G0 X-14.006 Y8.349
G1 X3.753 Y-9.41 B28.91
G1 X3.823 Y-9.48 B28.91
G0 X3.621 Y-9.364
G0 X-3.635 Y-9.34
G0 X-3.754 Y-9.41
G1 X14.007 Y8.35 B28.952
G1 X14.105 Y8.522 B28.952
G1 X7.725 Y14.901 B28.967
G1 X7.655 Y14.971 B28.967
G0 X7.655 Y14.762
G0 X9.244 Y14.762
G0 X9.244 Y14.901
G1 X-7.894 Y-2.237 B29.008
G1 X-7.964 Y-2.307 B29.008
G0 X-7.764 Y-2.19
G0 X-9.847 Y1.417
G0 X-9.965 Y1.348
G1 X3.587 Y14.901 B29.04
G1 X3.657 Y14.971 B29.04
G0 X3.657 Y14.762
G0 X2.068 Y14.762
G0 X2.068 Y14.901
G1 X12.034 Y4.935 B29.063
G1 X12.104 Y4.865 B29.064
G0 X11.903 Y4.98
G0 X16.058 Y12.175
G0 X16.175 Y12.108
G1 X13.382 Y14.901 B29.07
G1 X13.312 Y14.971 B29.07
G0 X13.312 Y14.762
G0 X14.901 Y14.762
G0 X14.901 Y14.901
G1 X-5.824 Y-5.824 B29.119
G1 X-5.894 Y-5.894 B29.119
G0 X-5.693 Y-5.777
G0 X17.052 Y13.872
G0 X17.377 Y13.865
;TYPE:WALL-INNER
G1 X0.677 Y-15.061 B29.175
G1 X-0.677 Y-15.061 B29.177
G1 X-17.377 Y13.865 B29.233
G1 X-16.779 Y15.062 B29.235
G1 X16.778 Y15.061 B29.291
G1 X17.377 Y13.865 B29.293
G0 X17.831 Y13.851
;TYPE:WALL-OUTER
G1 X0.908 Y-15.461 B29.35 F150.0
G1 X-0.908 Y-15.461 B29.353
G1 X-17.831 Y13.851 B29.409
G1 X-17.026 Y15.462 B29.412
G1 X17.026 Y15.461 B29.469
G1 X17.831 Y13.851 B29.472
G0 X17.731 Y13.678 F300.0
G0 X16.71 Y13.905
;MESH:NONMESH
G0 X16.71 Y13.905 Z1.6 F120.0
G0 X-6.162 Y-4.964 F300.0
G0 X-6.279 Y-5.033
;TIME_ELAPSED:6891.645435
;LAYER:13
;TYPE:FILL
;MESH:Tri_v2_small.stl
G1 X1.682 Y-12.996 B29.491
G1 X1.752 Y-13.066 B29.491
G0 X1.551 Y-12.95
G0 X-1.564 Y-12.927
G0 X-1.683 Y-12.997
G1 X6.28 Y-5.033 B29.509
G1 X6.35 Y-4.963 B29.51
G0 X6.209 Y-4.882
G0 X5.705 Y-5.755
G0 X5.823 Y-5.823
G1 X-14.901 Y14.901 B29.558
G1 X-14.971 Y14.971 B29.559
G0 X-14.971 Y14.762
G0 X-13.382 Y14.762
G0 X-13.382 Y14.901
G1 X-16.176 Y12.107 B29.565
G1 X-16.246 Y12.037 B29.565
G0 X-16.046 Y12.154
G0 X-13.988 Y8.59
G0 X-14.106 Y8.521
G1 X-7.725 Y14.901 B29.58
G1 X-7.655 Y14.971 B29.581
G0 X-7.655 Y14.762
G0 X-9.244 Y14.762
G0 X-9.244 Y14.901
G1 X7.894 Y-2.237 B29.621
G1 X7.964 Y-2.307 B29.621
G0 X7.763 Y-2.191
G0 X9.846 Y1.417
G0 X9.964 Y1.349
G1 X-3.587 Y14.901 B29.653
G1 X-3.657 Y14.971 B29.653
G0 X-3.657 Y14.762
G0 X-2.068 Y14.762
G0 X-2.068 Y14.901
G1 X-12.035 Y4.934 B29.677
G1 X-12.105 Y4.864 B29.677
G0 X-11.904 Y4.981
G0 X-13.889 Y8.418
G0 X-14.006 Y8.349
G1 X3.753 Y-9.41 B29.719
G1 X3.823 Y-9.48 B29.719
G0 X3.621 Y-9.364
G0 X-3.635 Y-9.34
G0 X-3.754 Y-9.41
G1 X14.007 Y8.35 B29.761
G1 X14.105 Y8.522 B29.761
G1 X7.725 Y14.901 B29.776
G1 X7.655 Y14.971 B29.776
G0 X7.655 Y14.762
G0 X9.244 Y14.762
G0 X9.244 Y14.901
G1 X-7.894 Y-2.237 B29.817
G1 X-7.964 Y-2.307 B29.817
G0 X-7.764 Y-2.19
G0 X-9.847 Y1.417
G0 X-9.965 Y1.348
G1 X3.587 Y14.901 B29.849
G1 X3.657 Y14.971 B29.849
G0 X3.657 Y14.762
G0 X2.068 Y14.762
G0 X2.068 Y14.901
G1 X12.034 Y4.935 B29.872
G1 X12.104 Y4.865 B29.873
G0 X11.903 Y4.98
G0 X16.058 Y12.175
G0 X16.175 Y12.108
G1 X13.382 Y14.901 B29.879
G1 X13.312 Y14.971 B29.879
G0 X13.312 Y14.762
G0 X14.901 Y14.762
G0 X14.901 Y14.901
G1 X-5.824 Y-5.824 B29.928
G1 X-5.894 Y-5.894 B29.928
G0 X-5.693 Y-5.777
G0 X17.052 Y13.872
G0 X17.377 Y13.865
;TYPE:WALL-INNER
G1 X0.677 Y-15.061 B29.984
G1 X-0.677 Y-15.061 B29.986
G1 X-17.377 Y13.865 B30.042
G1 X-16.779 Y15.062 B30.044
G1 X16.778 Y15.061 B30.1
G1 X17.377 Y13.865 B30.102
G0 X17.831 Y13.851
;TYPE:WALL-OUTER
G1 X0.908 Y-15.461 B30.159 F150.0
G1 X-0.908 Y-15.461 B30.162
G1 X-17.831 Y13.851 B30.218
G1 X-17.026 Y15.462 B30.221
G1 X17.026 Y15.461 B30.278
G1 X17.831 Y13.851 B30.281
G0 X17.731 Y13.678 F300.0
G0 X16.71 Y13.905
;MESH:NONMESH
G0 X16.71 Y13.905 Z1.7 F120.0
G0 X-6.162 Y-4.964 F300.0
G0 X-6.279 Y-5.033
;TIME_ELAPSED:7032.788902
;LAYER:14
;TYPE:FILL
;MESH:Tri_v2_small.stl
G1 X1.682 Y-12.996 B30.299
G1 X1.752 Y-13.066 B30.3
G0 X1.551 Y-12.95
G0 X-1.564 Y-12.927
G0 X-1.683 Y-12.997
G1 X6.28 Y-5.033 B30.318
G1 X6.35 Y-4.963 B30.319
G0 X6.209 Y-4.882
G0 X5.705 Y-5.755
G0 X5.823 Y-5.823
G1 X-14.901 Y14.901 B30.367
G1 X-14.971 Y14.971 B30.368
G0 X-14.971 Y14.762
G0 X-13.382 Y14.762
G0 X-13.382 Y14.901
G1 X-16.176 Y12.107 B30.374
G1 X-16.246 Y12.037 B30.374
G0 X-16.046 Y12.154
G0 X-13.988 Y8.59
G0 X-14.106 Y8.521
G1 X-7.725 Y14.901 B30.389
G1 X-7.655 Y14.971 B30.39
G0 X-7.655 Y14.762
G0 X-9.244 Y14.762
G0 X-9.244 Y14.901
G1 X7.894 Y-2.237 B30.43
G1 X7.964 Y-2.307 B30.43
G0 X7.763 Y-2.191
G0 X9.846 Y1.417
G0 X9.964 Y1.349
G1 X-3.587 Y14.901 B30.462
G1 X-3.657 Y14.971 B30.462
G0 X-3.657 Y14.762
G0 X-2.068 Y14.762
G0 X-2.068 Y14.901
G1 X-12.035 Y4.934 B30.486
G1 X-12.105 Y4.864 B30.486
G0 X-11.904 Y4.981
G0 X-13.889 Y8.418
G0 X-14.006 Y8.349
G1 X3.753 Y-9.41 B30.528
G1 X3.823 Y-9.48 B30.528
G0 X3.621 Y-9.364
G0 X-3.635 Y-9.34
G0 X-3.754 Y-9.41
G1 X14.007 Y8.35 B30.57
G1 X14.105 Y8.522 B30.57
G1 X7.725 Y14.901 B30.585
G1 X7.655 Y14.971 B30.585
G0 X7.655 Y14.762
G0 X9.244 Y14.762
G0 X9.244 Y14.901
G1 X-7.894 Y-2.237 B30.626
G1 X-7.964 Y-2.307 B30.626
G0 X-7.764 Y-2.19
G0 X-9.847 Y1.417
G0 X-9.965 Y1.348
G1 X3.587 Y14.901 B30.658
G1 X3.657 Y14.971 B30.658
G0 X3.657 Y14.762
G0 X2.068 Y14.762
G0 X2.068 Y14.901
G1 X12.034 Y4.935 B30.681
G1 X12.104 Y4.865 B30.681
G0 X11.903 Y4.98
G0 X16.058 Y12.175
G0 X16.175 Y12.108
G1 X13.382 Y14.901 B30.688
G1 X13.312 Y14.971 B30.688
G0 X13.312 Y14.762
G0 X14.901 Y14.762
G0 X14.901 Y14.901
G1 X-5.824 Y-5.824 B30.737
G1 X-5.894 Y-5.894 B30.737
G0 X-5.693 Y-5.777
G0 X17.052 Y13.872
G0 X17.377 Y13.865
;TYPE:WALL-INNER
G1 X0.677 Y-15.061 B30.793
G1 X-0.677 Y-15.061 B30.795
G1 X-17.377 Y13.865 B30.851
G1 X-16.779 Y15.062 B30.853
G1 X16.778 Y15.061 B30.909
G1 X17.377 Y13.865 B30.911
G0 X17.831 Y13.851
;TYPE:WALL-OUTER
G1 X0.908 Y-15.461 B30.967 F150.0
G1 X-0.908 Y-15.461 B30.971
G1 X-17.831 Y13.851 B31.027
G1 X-17.026 Y15.462 B31.03
G1 X17.026 Y15.461 B31.087
G1 X17.831 Y13.851 B31.09
G0 X17.731 Y13.678 F300.0
G0 X16.71 Y13.905
;MESH:NONMESH
G0 X16.71 Y13.905 Z1.8 F120.0
G0 X-6.162 Y-4.964 F300.0
G0 X-6.279 Y-5.033
;TIME_ELAPSED:7173.932369
;LAYER:15
;TYPE:FILL
;MESH:Tri_v2_small.stl
G1 X1.682 Y-12.996 B31.108
G1 X1.752 Y-13.066 B31.109
G0 X1.551 Y-12.95
G0 X-1.564 Y-12.927
G0 X-1.683 Y-12.997
G1 X6.28 Y-5.033 B31.127
G1 X6.35 Y-4.963 B31.127
G0 X6.209 Y-4.882
G0 X5.705 Y-5.755
G0 X5.823 Y-5.823
G1 X-14.901 Y14.901 B31.176
G1 X-14.971 Y14.971 B31.176
G0 X-14.971 Y14.762
G0 X-13.382 Y14.762
G0 X-13.382 Y14.901
G1 X-16.176 Y12.107 B31.183
G1 X-16.246 Y12.037 B31.183
G0 X-16.046 Y12.154
G0 X-13.988 Y8.59
G0 X-14.106 Y8.521
G1 X-7.725 Y14.901 B31.198
G1 X-7.655 Y14.971 B31.198
G0 X-7.655 Y14.762
G0 X-9.244 Y14.762
G0 X-9.244 Y14.901
G1 X7.894 Y-2.237 B31.239
G1 X7.964 Y-2.307 B31.239
G0 X7.763 Y-2.191
G0 X9.846 Y1.417
G0 X9.964 Y1.349
G1 X-3.587 Y14.901 B31.271
G1 X-3.657 Y14.971 B31.271
G0 X-3.657 Y14.762
G0 X-2.068 Y14.762
G0 X-2.068 Y14.901
G1 X-12.035 Y4.934 B31.295
G1 X-12.105 Y4.864 B31.295
G0 X-11.904 Y4.981
G0 X-13.889 Y8.418
G0 X-14.006 Y8.349
G1 X3.753 Y-9.41 B31.337
G1 X3.823 Y-9.48 B31.337
G0 X3.621 Y-9.364
G0 X-3.635 Y-9.34
G0 X-3.754 Y-9.41
G1 X14.007 Y8.35 B31.379
G1 X14.105 Y8.522 B31.379
G1 X7.725 Y14.901 B31.394
G1 X7.655 Y14.971 B31.394
G0 X7.655 Y14.762
G0 X9.244 Y14.762
G0 X9.244 Y14.901
G1 X-7.894 Y-2.237 B31.434
G1 X-7.964 Y-2.307 B31.435
G0 X-7.764 Y-2.19
G0 X-9.847 Y1.417
G0 X-9.965 Y1.348
G1 X3.587 Y14.901 B31.467
G1 X3.657 Y14.971 B31.467
G0 X3.657 Y14.762
G0 X2.068 Y14.762
G0 X2.068 Y14.901
G1 X12.034 Y4.935 B31.49
G1 X12.104 Y4.865 B31.49
G0 X11.903 Y4.98
G0 X16.058 Y12.175
G0 X16.175 Y12.108
G1 X13.382 Y14.901 B31.497
G1 X13.312 Y14.971 B31.497
G0 X13.312 Y14.762
G0 X14.901 Y14.762
G0 X14.901 Y14.901
G1 X-5.824 Y-5.824 B31.546
G1 X-5.894 Y-5.894 B31.546
G0 X-5.693 Y-5.777
G0 X17.052 Y13.872
G0 X17.377 Y13.865
;TYPE:WALL-INNER
G1 X0.677 Y-15.061 B31.602
G1 X-0.677 Y-15.061 B31.604
G1 X-17.377 Y13.865 B31.66
G1 X-16.779 Y15.062 B31.662
G1 X16.778 Y15.061 B31.718
G1 X17.377 Y13.865 B31.72
G0 X17.831 Y13.851
;TYPE:WALL-OUTER
G1 X0.908 Y-15.461 B31.776 F150.0
G1 X-0.908 Y-15.461 B31.779
G1 X-17.831 Y13.851 B31.836
G1 X-17.026 Y15.462 B31.839
G1 X17.026 Y15.461 B31.896
G1 X17.831 Y13.851 B31.899
G0 X17.731 Y13.678 F300.0
G0 X16.71 Y13.905
;MESH:NONMESH
G0 X16.71 Y13.905 Z1.9 F120.0
G0 X-6.162 Y-4.964 F300.0
G0 X-6.279 Y-5.033
;TIME_ELAPSED:7315.075835
;LAYER:16
;TYPE:FILL
;MESH:Tri_v2_small.stl
G1 X1.682 Y-12.996 B31.917
G1 X1.752 Y-13.066 B31.917
G0 X1.551 Y-12.95
G0 X-1.564 Y-12.927
G0 X-1.683 Y-12.997
G1 X6.28 Y-5.033 B31.936
G1 X6.35 Y-4.963 B31.936
G0 X6.209 Y-4.882
G0 X5.705 Y-5.755
G0 X5.823 Y-5.823
G1 X-14.901 Y14.901 B31.985
G1 X-14.971 Y14.971 B31.985
G0 X-14.971 Y14.762
G0 X-13.382 Y14.762
G0 X-13.382 Y14.901
G1 X-16.176 Y12.107 B31.992
G1 X-16.246 Y12.037 B31.992
G0 X-16.046 Y12.154
G0 X-13.988 Y8.59
G0 X-14.106 Y8.521
G1 X-7.725 Y14.901 B32.007
G1 X-7.655 Y14.971 B32.007
G0 X-7.655 Y14.762
G0 X-9.244 Y14.762
G0 X-9.244 Y14.901
G1 X7.894 Y-2.237 B32.048
G1 X7.964 Y-2.307 B32.048
G0 X7.763 Y-2.191
G0 X9.846 Y1.417
G0 X9.964 Y1.349
G1 X-3.587 Y14.901 B32.08
G1 X-3.657 Y14.971 B32.08
G0 X-3.657 Y14.762
G0 X-2.068 Y14.762
G0 X-2.068 Y14.901
G1 X-12.035 Y4.934 B32.103
G1 X-12.105 Y4.864 B32.104
G0 X-11.904 Y4.981
G0 X-13.889 Y8.418
G0 X-14.006 Y8.349
G1 X3.753 Y-9.41 B32.145
G1 X3.823 Y-9.48 B32.146
G0 X3.621 Y-9.364
G0 X-3.635 Y-9.34
G0 X-3.754 Y-9.41
G1 X14.007 Y8.35 B32.187
G1 X14.105 Y8.522 B32.188
G1 X7.725 Y14.901 B32.203
G1 X7.655 Y14.971 B32.203
G0 X7.655 Y14.762
G0 X9.244 Y14.762
G0 X9.244 Y14.901
G1 X-7.894 Y-2.237 B32.243
G1 X-7.964 Y-2.307 B32.244
G0 X-7.764 Y-2.19
G0 X-9.847 Y1.417
G0 X-9.965 Y1.348
G1 X3.587 Y14.901 B32.275
G1 X3.657 Y14.971 B32.276
G0 X3.657 Y14.762
G0 X2.068 Y14.762
G0 X2.068 Y14.901
G1 X12.034 Y4.935 B32.299
G1 X12.104 Y4.865 B32.299
G0 X11.903 Y4.98
G0 X16.058 Y12.175
G0 X16.175 Y12.108
G1 X13.382 Y14.901 B32.306
G1 X13.312 Y14.971 B32.306
G0 X13.312 Y14.762
G0 X14.901 Y14.762
G0 X14.901 Y14.901
G1 X-5.824 Y-5.824 B32.355
G1 X-5.894 Y-5.894 B32.355
G0 X-5.693 Y-5.777
G0 X17.052 Y13.872
G0 X17.377 Y13.865
;TYPE:WALL-INNER
G1 X0.677 Y-15.061 B32.411
G1 X-0.677 Y-15.061 B32.413
G1 X-17.377 Y13.865 B32.469
G1 X-16.779 Y15.062 B32.471
G1 X16.778 Y15.061 B32.527
G1 X17.377 Y13.865 B32.529
G0 X17.831 Y13.851
;TYPE:WALL-OUTER
G1 X0.908 Y-15.461 B32.585 F150.0
G1 X-0.908 Y-15.461 B32.588
G1 X-17.831 Y13.851 B32.645
G1 X-17.026 Y15.462 B32.648
G1 X17.026 Y15.461 B32.704
G1 X17.831 Y13.851 B32.707
G0 X17.731 Y13.678 F300.0
G0 X16.71 Y13.905
;MESH:NONMESH
G0 X16.71 Y13.905 Z2.0 F120.0
G0 X-6.162 Y-4.964 F300.0
G0 X-6.279 Y-5.033
;TIME_ELAPSED:7456.219302
;LAYER:17
;TYPE:FILL
;MESH:Tri_v2_small.stl
G1 X1.682 Y-12.996 B32.726
G1 X1.752 Y-13.066 B32.726
G0 X1.551 Y-12.95
G0 X-1.564 Y-12.927
G0 X-1.683 Y-12.997
G1 X6.28 Y-5.033 B32.745
G1 X6.35 Y-4.963 B32.745
G0 X6.209 Y-4.882
G0 X5.705 Y-5.755
G0 X5.823 Y-5.823
G1 X-14.901 Y14.901 B32.794
G1 X-14.971 Y14.971 B32.794
G0 X-14.971 Y14.762
G0 X-13.382 Y14.762
G0 X-13.382 Y14.901
G1 X-16.176 Y12.107 B32.801
G1 X-16.246 Y12.037 B32.801
G0 X-16.046 Y12.154
G0 X-13.988 Y8.59
G0 X-14.106 Y8.521
G1 X-7.725 Y14.901 B32.816
G1 X-7.655 Y14.971 B32.816
G0 X-7.655 Y14.762
G0 X-9.244 Y14.762
G0 X-9.244 Y14.901
G1 X7.894 Y-2.237 B32.857
G1 X7.964 Y-2.307 B32.857
G0 X7.763 Y-2.191
G0 X9.846 Y1.417
G0 X9.964 Y1.349
G1 X-3.587 Y14.901 B32.889
G1 X-3.657 Y14.971 B32.889
G0 X-3.657 Y14.762
G0 X-2.068 Y14.762
G0 X-2.068 Y14.901
G1 X-12.035 Y4.934 B32.912
G1 X-12.105 Y4.864 B32.912
G0 X-11.904 Y4.981
G0 X-13.889 Y8.418
G0 X-14.006 Y8.349
G1 X3.753 Y-9.41 B32.954
G1 X3.823 Y-9.48 B32.955
G0 X3.621 Y-9.364
G0 X-3.635 Y-9.34
G0 X-3.754 Y-9.41
G1 X14.007 Y8.35 B32.996
G1 X14.105 Y8.522 B32.997
G1 X7.725 Y14.901 B33.012
G1 X7.655 Y14.971 B33.012
G0 X7.655 Y14.762
G0 X9.244 Y14.762
G0 X9.244 Y14.901
G1 X-7.894 Y-2.237 B33.052
G1 X-7.964 Y-2.307 B33.052
G0 X-7.764 Y-2.19
G0 X-9.847 Y1.417
G0 X-9.965 Y1.348
G1 X3.587 Y14.901 B33.084
G1 X3.657 Y14.971 B33.085
G0 X3.657 Y14.762
G0 X2.068 Y14.762
G0 X2.068 Y14.901
G1 X12.034 Y4.935 B33.108
G1 X12.104 Y4.865 B33.108
G0 X11.903 Y4.98
G0 X16.058 Y12.175
G0 X16.175 Y12.108
G1 X13.382 Y14.901 B33.115
G1 X13.312 Y14.971 B33.115
G0 X13.312 Y14.762
G0 X14.901 Y14.762
G0 X14.901 Y14.901
G1 X-5.824 Y-5.824 B33.164
G1 X-5.894 Y-5.894 B33.164
G0 X-5.693 Y-5.777
G0 X17.052 Y13.872
G0 X17.377 Y13.865
;TYPE:WALL-INNER
G1 X0.677 Y-15.061 B33.22
G1 X-0.677 Y-15.061 B33.222
G1 X-17.377 Y13.865 B33.277
G1 X-16.779 Y15.062 B33.28
G1 X16.778 Y15.061 B33.336
G1 X17.377 Y13.865 B33.338
G0 X17.831 Y13.851
;TYPE:WALL-OUTER
G1 X0.908 Y-15.461 B33.394 F150.0
G1 X-0.908 Y-15.461 B33.397
G1 X-17.831 Y13.851 B33.454
G1 X-17.026 Y15.462 B33.457
G1 X17.026 Y15.461 B33.513
G1 X17.831 Y13.851 B33.516
G0 X17.731 Y13.678 F300.0
G0 X16.71 Y13.905
;MESH:NONMESH
G0 X16.71 Y13.905 Z2.1 F120.0
G0 X-6.162 Y-4.964 F300.0
G0 X-6.279 Y-5.033
;TIME_ELAPSED:7597.362769
;LAYER:18
;TYPE:FILL
;MESH:Tri_v2_small.stl
G1 X1.682 Y-12.996 B33.535
G1 X1.752 Y-13.066 B33.535
G0 X1.551 Y-12.95
G0 X-1.564 Y-12.927
G0 X-1.683 Y-12.997
G1 X6.28 Y-5.033 B33.554
G1 X6.35 Y-4.963 B33.554
G0 X6.209 Y-4.882
G0 X5.705 Y-5.755
G0 X5.823 Y-5.823
G1 X-14.901 Y14.901 B33.603
G1 X-14.971 Y14.971 B33.603
G0 X-14.971 Y14.762
G0 X-13.382 Y14.762
G0 X-13.382 Y14.901
G1 X-16.176 Y12.107 B33.61
G1 X-16.246 Y12.037 B33.61
G0 X-16.046 Y12.154
G0 X-13.988 Y8.59
G0 X-14.106 Y8.521
G1 X-7.725 Y14.901 B33.625
G1 X-7.655 Y14.971 B33.625
G0 X-7.655 Y14.762
G0 X-9.244 Y14.762
G0 X-9.244 Y14.901
G1 X7.894 Y-2.237 B33.665
G1 X7.964 Y-2.307 B33.666
G0 X7.763 Y-2.191
G0 X9.846 Y1.417
G0 X9.964 Y1.349
G1 X-3.587 Y14.901 B33.698
G1 X-3.657 Y14.971 B33.698
G0 X-3.657 Y14.762
G0 X-2.068 Y14.762
G0 X-2.068 Y14.901
G1 X-12.035 Y4.934 B33.721
G1 X-12.105 Y4.864 B33.721
G0 X-11.904 Y4.981
G0 X-13.889 Y8.418
G0 X-14.006 Y8.349
G1 X3.753 Y-9.41 B33.763
G1 X3.823 Y-9.48 B33.763
G0 X3.621 Y-9.364
G0 X-3.635 Y-9.34
G0 X-3.754 Y-9.41
G1 X14.007 Y8.35 B33.805
G1 X14.105 Y8.522 B33.806
G1 X7.725 Y14.901 B33.821
G1 X7.655 Y14.971 B33.821
G0 X7.655 Y14.762
G0 X9.244 Y14.762
G0 X9.244 Y14.901
G1 X-7.894 Y-2.237 B33.861
G1 X-7.964 Y-2.307 B33.861
G0 X-7.764 Y-2.19
G0 X-9.847 Y1.417
G0 X-9.965 Y1.348
G1 X3.587 Y14.901 B33.893
G1 X3.657 Y14.971 B33.893
G0 X3.657 Y14.762
G0 X2.068 Y14.762
G0 X2.068 Y14.901
G1 X12.034 Y4.935 B33.917
G1 X12.104 Y4.865 B33.917
G0 X11.903 Y4.98
G0 X16.058 Y12.175
G0 X16.175 Y12.108
G1 X13.382 Y14.901 B33.924
G1 X13.312 Y14.971 B33.924
G0 X13.312 Y14.762
G0 X14.901 Y14.762
G0 X14.901 Y14.901
G1 X-5.824 Y-5.824 B33.973
G1 X-5.894 Y-5.894 B33.973
G0 X-5.693 Y-5.777
G0 X17.052 Y13.872
G0 X17.377 Y13.865
;TYPE:WALL-INNER
G1 X0.677 Y-15.061 B34.028
G1 X-0.677 Y-15.061 B34.031
G1 X-17.377 Y13.865 B34.086
G1 X-16.779 Y15.062 B34.089
G1 X16.778 Y15.061 B34.144
G1 X17.377 Y13.865 B34.147
G0 X17.831 Y13.851
;TYPE:WALL-OUTER
G1 X0.908 Y-15.461 B34.203 F150.0
G1 X-0.908 Y-15.461 B34.206
G1 X-17.831 Y13.851 B34.263
G1 X-17.026 Y15.462 B34.266
G1 X17.026 Y15.461 B34.322
G1 X17.831 Y13.851 B34.325
G0 X17.731 Y13.678 F300.0
G0 X16.71 Y13.905
;MESH:NONMESH
G0 X16.71 Y13.905 Z2.2 F120.0
G0 X-6.162 Y-4.964 F300.0
G0 X-6.279 Y-5.033
;TIME_ELAPSED:7738.506236
;LAYER:19
;TYPE:FILL
;MESH:Tri_v2_small.stl
G1 X1.682 Y-12.996 B34.344
G1 X1.752 Y-13.066 B34.344
G0 X1.551 Y-12.95
G0 X-1.564 Y-12.927
G0 X-1.683 Y-12.997
G1 X6.28 Y-5.033 B34.363
G1 X6.35 Y-4.963 B34.363
G0 X6.209 Y-4.882
G0 X5.705 Y-5.755
G0 X5.823 Y-5.823
G1 X-14.901 Y14.901 B34.412
G1 X-14.971 Y14.971 B34.412
G0 X-14.971 Y14.762
G0 X-13.382 Y14.762
G0 X-13.382 Y14.901
G1 X-16.176 Y12.107 B34.419
G1 X-16.246 Y12.037 B34.419
G0 X-16.046 Y12.154
G0 X-13.988 Y8.59
G0 X-14.106 Y8.521
G1 X-7.725 Y14.901 B34.434
G1 X-7.655 Y14.971 B34.434
G0 X-7.655 Y14.762
G0 X-9.244 Y14.762
G0 X-9.244 Y14.901
G1 X7.894 Y-2.237 B34.474
G1 X7.964 Y-2.307 B34.475
G0 X7.763 Y-2.191
G0 X9.846 Y1.417
G0 X9.964 Y1.349
G1 X-3.587 Y14.901 B34.506
G1 X-3.657 Y14.971 B34.507
G0 X-3.657 Y14.762
G0 X-2.068 Y14.762
G0 X-2.068 Y14.901
G1 X-12.035 Y4.934 B34.53
G1 X-12.105 Y4.864 B34.53
G0 X-11.904 Y4.981
G0 X-13.889 Y8.418
G0 X-14.006 Y8.349
G1 X3.753 Y-9.41 B34.572
G1 X3.823 Y-9.48 B34.572
G0 X3.621 Y-9.364
G0 X-3.635 Y-9.34
G0 X-3.754 Y-9.41
G1 X14.007 Y8.35 B34.614
G1 X14.105 Y8.522 B34.614
G1 X7.725 Y14.901 B34.63
G1 X7.655 Y14.971 B34.63
G0 X7.655 Y14.762
G0 X9.244 Y14.762
G0 X9.244 Y14.901
G1 X-7.894 Y-2.237 B34.67
G1 X-7.964 Y-2.307 B34.67
G0 X-7.764 Y-2.19
G0 X-9.847 Y1.417
G0 X-9.965 Y1.348
G1 X3.587 Y14.901 B34.702
G1 X3.657 Y14.971 B34.702
G0 X3.657 Y14.762
G0 X2.068 Y14.762
G0 X2.068 Y14.901
G1 X12.034 Y4.935 B34.726
G1 X12.104 Y4.865 B34.726
G0 X11.903 Y4.98
G0 X16.058 Y12.175
G0 X16.175 Y12.108
G1 X13.382 Y14.901 B34.733
G1 X13.312 Y14.971 B34.733
G0 X13.312 Y14.762
G0 X14.901 Y14.762
G0 X14.901 Y14.901
G1 X-5.824 Y-5.824 B34.782
G1 X-5.894 Y-5.894 B34.782
G0 X-5.693 Y-5.777
G0 X17.052 Y13.872
G0 X17.377 Y13.865
;TYPE:WALL-INNER
G1 X0.677 Y-15.061 B34.837
G1 X-0.677 Y-15.061 B34.84
G1 X-17.377 Y13.865 B34.895
G1 X-16.779 Y15.062 B34.897
G1 X16.778 Y15.061 B34.953
G1 X17.377 Y13.865 B34.956
G0 X17.831 Y13.851
;TYPE:WALL-OUTER
G1 X0.908 Y-15.461 B35.012 F150.0
G1 X-0.908 Y-15.461 B35.015
G1 X-17.831 Y13.851 B35.071
G1 X-17.026 Y15.462 B35.074
G1 X17.026 Y15.461 B35.131
G1 X17.831 Y13.851 B35.134
G0 X17.731 Y13.678 F300.0
G0 X16.71 Y13.905
;MESH:NONMESH
G0 X16.71 Y13.905 Z2.3 F120.0
G0 X-6.162 Y-4.964 F300.0
G0 X-6.279 Y-5.033
;TIME_ELAPSED:7879.649702
;LAYER:20
;TYPE:FILL
;MESH:Tri_v2_small.stl
G1 X1.682 Y-12.996 B35.153
G1 X1.752 Y-13.066 B35.153
G0 X1.551 Y-12.95
G0 X-1.564 Y-12.927
G0 X-1.683 Y-12.997
G1 X6.28 Y-5.033 B35.172
G1 X6.35 Y-4.963 B35.172
G0 X6.209 Y-4.882
G0 X5.705 Y-5.755
G0 X5.823 Y-5.823
G1 X-14.901 Y14.901 B35.221
G1 X-14.971 Y14.971 B35.221
G0 X-14.971 Y14.762
G0 X-13.382 Y14.762
G0 X-13.382 Y14.901
G1 X-16.176 Y12.107 B35.228
G1 X-16.246 Y12.037 B35.228
G0 X-16.046 Y12.154
G0 X-13.988 Y8.59
G0 X-14.106 Y8.521
G1 X-7.725 Y14.901 B35.243
G1 X-7.655 Y14.971 B35.243
G0 X-7.655 Y14.762
G0 X-9.244 Y14.762
G0 X-9.244 Y14.901
G1 X7.894 Y-2.237 B35.283
G1 X7.964 Y-2.307 B35.283
G0 X7.763 Y-2.191
G0 X9.846 Y1.417
G0 X9.964 Y1.349
G1 X-3.587 Y14.901 B35.315
G1 X-3.657 Y14.971 B35.316
G0 X-3.657 Y14.762
G0 X-2.068 Y14.762
G0 X-2.068 Y14.901
G1 X-12.035 Y4.934 B35.339
G1 X-12.105 Y4.864 B35.339
G0 X-11.904 Y4.981
G0 X-13.889 Y8.418
G0 X-14.006 Y8.349
G1 X3.753 Y-9.41 B35.381
G1 X3.823 Y-9.48 B35.381
G0 X3.621 Y-9.364
G0 X-3.635 Y-9.34
G0 X-3.754 Y-9.41
G1 X14.007 Y8.35 B35.423
G1 X14.105 Y8.522 B35.423
G1 X7.725 Y14.901 B35.438
G1 X7.655 Y14.971 B35.439
G0 X7.655 Y14.762
G0 X9.244 Y14.762
G0 X9.244 Y14.901
G1 X-7.894 Y-2.237 B35.479
G1 X-7.964 Y-2.307 B35.479
G0 X-7.764 Y-2.19
G0 X-9.847 Y1.417
G0 X-9.965 Y1.348
G1 X3.587 Y14.901 B35.511
G1 X3.657 Y14.971 B35.511
G0 X3.657 Y14.762
G0 X2.068 Y14.762
G0 X2.068 Y14.901
G1 X12.034 Y4.935 B35.535
G1 X12.104 Y4.865 B35.535
G0 X11.903 Y4.98
G0 X16.058 Y12.175
G0 X16.175 Y12.108
G1 X13.382 Y14.901 B35.541
G1 X13.312 Y14.971 B35.542
G0 X13.312 Y14.762
G0 X14.901 Y14.762
G0 X14.901 Y14.901
G1 X-5.824 Y-5.824 B35.59
G1 X-5.894 Y-5.894 B35.591
G0 X-5.693 Y-5.777
G0 X17.052 Y13.872
G0 X17.377 Y13.865
;TYPE:WALL-INNER
G1 X0.677 Y-15.061 B35.646
G1 X-0.677 Y-15.061 B35.649
G1 X-17.377 Y13.865 B35.704
G1 X-16.779 Y15.062 B35.706
G1 X16.778 Y15.061 B35.762
G1 X17.377 Y13.865 B35.765
G0 X17.831 Y13.851
;TYPE:WALL-OUTER
G1 X0.908 Y-15.461 B35.821 F150.0
G1 X-0.908 Y-15.461 B35.824
G1 X-17.831 Y13.851 B35.88
G1 X-17.026 Y15.462 B35.883
G1 X17.026 Y15.461 B35.94
G1 X17.831 Y13.851 B35.943
G0 X17.731 Y13.678 F300.0
G0 X16.71 Y13.905
;MESH:NONMESH
G0 X16.71 Y13.905 Z2.4 F120.0
G0 X-6.162 Y-4.964 F300.0
G0 X-6.279 Y-5.033
;TIME_ELAPSED:8020.793169
;LAYER:21
;TYPE:FILL
;MESH:Tri_v2_small.stl
G1 X1.682 Y-12.996 B35.962
G1 X1.752 Y-13.066 B35.962
G0 X1.551 Y-12.95
G0 X-1.564 Y-12.927
G0 X-1.683 Y-12.997
G1 X6.28 Y-5.033 B35.981
G1 X6.35 Y-4.963 B35.981
G0 X6.209 Y-4.882
G0 X5.705 Y-5.755
G0 X5.823 Y-5.823
G1 X-14.901 Y14.901 B36.03
G1 X-14.971 Y14.971 B36.03
G0 X-14.971 Y14.762
G0 X-13.382 Y14.762
G0 X-13.382 Y14.901
G1 X-16.176 Y12.107 B36.036
G1 X-16.246 Y12.037 B36.037
G0 X-16.046 Y12.154
G0 X-13.988 Y8.59
G0 X-14.106 Y8.521
G1 X-7.725 Y14.901 B36.052
G1 X-7.655 Y14.971 B36.052
G0 X-7.655 Y14.762
G0 X-9.244 Y14.762
G0 X-9.244 Y14.901
G1 X7.894 Y-2.237 B36.092
G1 X7.964 Y-2.307 B36.092
G0 X7.763 Y-2.191
G0 X9.846 Y1.417
G0 X9.964 Y1.349
G1 X-3.587 Y14.901 B36.124
G1 X-3.657 Y14.971 B36.124
G0 X-3.657 Y14.762
G0 X-2.068 Y14.762
G0 X-2.068 Y14.901
G1 X-12.035 Y4.934 B36.148
G1 X-12.105 Y4.864 B36.148
G0 X-11.904 Y4.981
G0 X-13.889 Y8.418
G0 X-14.006 Y8.349
G1 X3.753 Y-9.41 B36.19
G1 X3.823 Y-9.48 B36.19
G0 X3.621 Y-9.364
G0 X-3.635 Y-9.34
G0 X-3.754 Y-9.41
G1 X14.007 Y8.35 B36.232
G1 X14.105 Y8.522 B36.232
G1 X7.725 Y14.901 B36.247
G1 X7.655 Y14.971 B36.247
G0 X7.655 Y14.762
G0 X9.244 Y14.762
G0 X9.244 Y14.901
G1 X-7.894 Y-2.237 B36.288
G1 X-7.964 Y-2.307 B36.288
G0 X-7.764 Y-2.19
G0 X-9.847 Y1.417
G0 X-9.965 Y1.348
G1 X3.587 Y14.901 B36.32
G1 X3.657 Y14.971 B36.32
G0 X3.657 Y14.762
G0 X2.068 Y14.762
G0 X2.068 Y14.901
G1 X12.034 Y4.935 B36.344
G1 X12.104 Y4.865 B36.344
G0 X11.903 Y4.98
G0 X16.058 Y12.175
G0 X16.175 Y12.108
G1 X13.382 Y14.901 B36.35
G1 X13.312 Y14.971 B36.351
G0 X13.312 Y14.762
G0 X14.901 Y14.762
G0 X14.901 Y14.901
G1 X-5.824 Y-5.824 B36.399
G1 X-5.894 Y-5.894 B36.4
G0 X-5.693 Y-5.777
G0 X17.052 Y13.872
G0 X17.377 Y13.865
;TYPE:WALL-INNER
G1 X0.677 Y-15.061 B36.455
G1 X-0.677 Y-15.061 B36.457
G1 X-17.377 Y13.865 B36.513
G1 X-16.779 Y15.062 B36.515
G1 X16.778 Y15.061 B36.571
G1 X17.377 Y13.865 B36.573
G0 X17.831 Y13.851
;TYPE:WALL-OUTER
G1 X0.908 Y-15.461 B36.63 F150.0
G1 X-0.908 Y-15.461 B36.633
G1 X-17.831 Y13.851 B36.689
G1 X-17.026 Y15.462 B36.692
G1 X17.026 Y15.461 B36.749
G1 X17.831 Y13.851 B36.752
G0 X17.731 Y13.678 F300.0
G0 X16.71 Y13.905
;MESH:NONMESH
G0 X16.71 Y13.905 Z2.5 F120.0
G0 X-6.162 Y-4.964 F300.0
G0 X-6.279 Y-5.033
;TIME_ELAPSED:8161.936636
;LAYER:22
;TYPE:FILL
;MESH:Tri_v2_small.stl
G1 X1.682 Y-12.996 B36.771
G1 X1.752 Y-13.066 B36.771
G0 X1.551 Y-12.95
G0 X-1.564 Y-12.927
G0 X-1.683 Y-12.997
G1 X6.28 Y-5.033 B36.79
G1 X6.35 Y-4.963 B36.79
G0 X6.209 Y-4.882
G0 X5.705 Y-5.755
G0 X5.823 Y-5.823
G1 X-14.901 Y14.901 B36.839
G1 X-14.971 Y14.971 B36.839
G0 X-14.971 Y14.762
G0 X-13.382 Y14.762
G0 X-13.382 Y14.901
G1 X-16.176 Y12.107 B36.845
G1 X-16.246 Y12.037 B36.846
G0 X-16.046 Y12.154
G0 X-13.988 Y8.59
G0 X-14.106 Y8.521
G1 X-7.725 Y14.901 B36.861
G1 X-7.655 Y14.971 B36.861
G0 X-7.655 Y14.762
G0 X-9.244 Y14.762
G0 X-9.244 Y14.901
G1 X7.894 Y-2.237 B36.901
G1 X7.964 Y-2.307 B36.901
G0 X7.763 Y-2.191
G0 X9.846 Y1.417
G0 X9.964 Y1.349
G1 X-3.587 Y14.901 B36.933
G1 X-3.657 Y14.971 B36.933
G0 X-3.657 Y14.762
G0 X-2.068 Y14.762
G0 X-2.068 Y14.901
G1 X-12.035 Y4.934 B36.957
G1 X-12.105 Y4.864 B36.957
G0 X-11.904 Y4.981
G0 X-13.889 Y8.418
G0 X-14.006 Y8.349
G1 X3.753 Y-9.41 B36.999
G1 X3.823 Y-9.48 B36.999
G0 X3.621 Y-9.364
G0 X-3.635 Y-9.34
G0 X-3.754 Y-9.41
G1 X14.007 Y8.35 B37.041
G1 X14.105 Y8.522 B37.041
G1 X7.725 Y14.901 B37.056
G1 X7.655 Y14.971 B37.056
G0 X7.655 Y14.762
G0 X9.244 Y14.762
G0 X9.244 Y14.901
G1 X-7.894 Y-2.237 B37.097
G1 X-7.964 Y-2.307 B37.097
G0 X-7.764 Y-2.19
G0 X-9.847 Y1.417
G0 X-9.965 Y1.348
G1 X3.587 Y14.901 B37.129
G1 X3.657 Y14.971 B37.129
G0 X3.657 Y14.762
G0 X2.068 Y14.762
G0 X2.068 Y14.901
G1 X12.034 Y4.935 B37.153
G1 X12.104 Y4.865 B37.153
G0 X11.903 Y4.98
G0 X16.058 Y12.175
G0 X16.175 Y12.108
G1 X13.382 Y14.901 B37.159
G1 X13.312 Y14.971 B37.159
G0 X13.312 Y14.762
G0 X14.901 Y14.762
G0 X14.901 Y14.901
G1 X-5.824 Y-5.824 B37.208
G1 X-5.894 Y-5.894 B37.208
G0 X-5.693 Y-5.777
G0 X17.052 Y13.872
G0 X17.377 Y13.865
;TYPE:WALL-INNER
G1 X0.677 Y-15.061 B37.264
G1 X-0.677 Y-15.061 B37.266
G1 X-17.377 Y13.865 B37.322
G1 X-16.779 Y15.062 B37.324
G1 X16.778 Y15.061 B37.38
G1 X17.377 Y13.865 B37.382
G0 X17.831 Y13.851
;TYPE:WALL-OUTER
G1 X0.908 Y-15.461 B37.439 F150.0
G1 X-0.908 Y-15.461 B37.442
G1 X-17.831 Y13.851 B37.498
G1 X-17.026 Y15.462 B37.501
G1 X17.026 Y15.461 B37.558
G1 X17.831 Y13.851 B37.561
G0 X17.731 Y13.678 F300.0
G0 X16.71 Y13.905
;MESH:NONMESH
G0 X16.71 Y13.905 Z2.6 F120.0
G0 X-6.162 Y-4.964 F300.0
G0 X-6.279 Y-5.033
;TIME_ELAPSED:8303.080102
;LAYER:23
;TYPE:FILL
;MESH:Tri_v2_small.stl
G1 X1.682 Y-12.996 B37.58
G1 X1.752 Y-13.066 B37.58
G0 X1.551 Y-12.95
G0 X-1.564 Y-12.927
G0 X-1.683 Y-12.997
G1 X6.28 Y-5.033 B37.599
G1 X6.35 Y-4.963 B37.599
G0 X6.209 Y-4.882
G0 X5.705 Y-5.755
G0 X5.823 Y-5.823
G1 X-14.901 Y14.901 B37.648
G1 X-14.971 Y14.971 B37.648
G0 X-14.971 Y14.762
G0 X-13.382 Y14.762
G0 X-13.382 Y14.901
G1 X-16.176 Y12.107 B37.654
G1 X-16.246 Y12.037 B37.654
G0 X-16.046 Y12.154
G0 X-13.988 Y8.59
G0 X-14.106 Y8.521
G1 X-7.725 Y14.901 B37.669
G1 X-7.655 Y14.971 B37.67
G0 X-7.655 Y14.762
G0 X-9.244 Y14.762
G0 X-9.244 Y14.901
G1 X7.894 Y-2.237 B37.71
G1 X7.964 Y-2.307 B37.71
G0 X7.763 Y-2.191
G0 X9.846 Y1.417
G0 X9.964 Y1.349
G1 X-3.587 Y14.901 B37.742
G1 X-3.657 Y14.971 B37.742
G0 X-3.657 Y14.762
G0 X-2.068 Y14.762
G0 X-2.068 Y14.901
G1 X-12.035 Y4.934 B37.766
G1 X-12.105 Y4.864 B37.766
G0 X-11.904 Y4.981
G0 X-13.889 Y8.418
G0 X-14.006 Y8.349
G1 X3.753 Y-9.41 B37.808
G1 X3.823 Y-9.48 B37.808
G0 X3.621 Y-9.364
G0 X-3.635 Y-9.34
G0 X-3.754 Y-9.41
G1 X14.007 Y8.35 B37.85
G1 X14.105 Y8.522 B37.85
G1 X7.725 Y14.901 B37.865
G1 X7.655 Y14.971 B37.865
G0 X7.655 Y14.762
G0 X9.244 Y14.762
G0 X9.244 Y14.901
G1 X-7.894 Y-2.237 B37.906
G1 X-7.964 Y-2.307 B37.906
G0 X-7.764 Y-2.19
G0 X-9.847 Y1.417
G0 X-9.965 Y1.348
G1 X3.587 Y14.901 B37.938
G1 X3.657 Y14.971 B37.938
G0 X3.657 Y14.762
G0 X2.068 Y14.762
G0 X2.068 Y14.901
G1 X12.034 Y4.935 B37.961
G1 X12.104 Y4.865 B37.962
G0 X11.903 Y4.98
G0 X16.058 Y12.175
G0 X16.175 Y12.108
G1 X13.382 Y14.901 B37.968
G1 X13.312 Y14.971 B37.968
G0 X13.312 Y14.762
G0 X14.901 Y14.762
G0 X14.901 Y14.901
G1 X-5.824 Y-5.824 B38.017
G1 X-5.894 Y-5.894 B38.017
G0 X-5.693 Y-5.777
G0 X17.052 Y13.872
G0 X17.377 Y13.865
;TYPE:WALL-INNER
G1 X0.677 Y-15.061 B38.073
G1 X-0.677 Y-15.061 B38.075
G1 X-17.377 Y13.865 B38.131
G1 X-16.779 Y15.062 B38.133
G1 X16.778 Y15.061 B38.189
G1 X17.377 Y13.865 B38.191
G0 X17.831 Y13.851
;TYPE:WALL-OUTER
G1 X0.908 Y-15.461 B38.248 F150.0
G1 X-0.908 Y-15.461 B38.251
G1 X-17.831 Y13.851 B38.307
G1 X-17.026 Y15.462 B38.31
G1 X17.026 Y15.461 B38.367
G1 X17.831 Y13.851 B38.37
G0 X17.731 Y13.678 F300.0
G0 X16.71 Y13.905
;MESH:NONMESH
G0 X16.71 Y13.905 Z2.7 F120.0
G0 X-6.162 Y-4.964 F300.0
G0 X-6.279 Y-5.033
;TIME_ELAPSED:8444.223569
;LAYER:24
;TYPE:FILL
;MESH:Tri_v2_small.stl
G1 X1.682 Y-12.996 B38.389
G1 X1.752 Y-13.066 B38.389
G0 X1.551 Y-12.95
G0 X-1.564 Y-12.927
G0 X-1.683 Y-12.997
G1 X6.28 Y-5.033 B38.407
G1 X6.35 Y-4.963 B38.408
G0 X6.209 Y-4.882
G0 X5.705 Y-5.755
G0 X5.823 Y-5.823
G1 X-14.901 Y14.901 B38.456
G1 X-14.971 Y14.971 B38.457
G0 X-14.971 Y14.762
G0 X-13.382 Y14.762
G0 X-13.382 Y14.901
G1 X-16.176 Y12.107 B38.463
G1 X-16.246 Y12.037 B38.463
G0 X-16.046 Y12.154
G0 X-13.988 Y8.59
G0 X-14.106 Y8.521
G1 X-7.725 Y14.901 B38.478
G1 X-7.655 Y14.971 B38.479
G0 X-7.655 Y14.762
G0 X-9.244 Y14.762
G0 X-9.244 Y14.901
G1 X7.894 Y-2.237 B38.519
G1 X7.964 Y-2.307 B38.519
G0 X7.763 Y-2.191
G0 X9.846 Y1.417
G0 X9.964 Y1.349
G1 X-3.587 Y14.901 B38.551
G1 X-3.657 Y14.971 B38.551
G0 X-3.657 Y14.762
G0 X-2.068 Y14.762
G0 X-2.068 Y14.901
G1 X-12.035 Y4.934 B38.575
G1 X-12.105 Y4.864 B38.575
G0 X-11.904 Y4.981
G0 X-13.889 Y8.418
G0 X-14.006 Y8.349
G1 X3.753 Y-9.41 B38.617
G1 X3.823 Y-9.48 B38.617
G0 X3.621 Y-9.364
G0 X-3.635 Y-9.34
G0 X-3.754 Y-9.41
G1 X14.007 Y8.35 B38.659
G1 X14.105 Y8.522 B38.659
G1 X7.725 Y14.901 B38.674
G1 X7.655 Y14.971 B38.674
G0 X7.655 Y14.762
G0 X9.244 Y14.762
G0 X9.244 Y14.901
G1 X-7.894 Y-2.237 B38.715
G1 X-7.964 Y-2.307 B38.715
G0 X-7.764 Y-2.19
G0 X-9.847 Y1.417
G0 X-9.965 Y1.348
G1 X3.587 Y14.901 B38.747
G1 X3.657 Y14.971 B38.747
G0 X3.657 Y14.762
G0 X2.068 Y14.762
G0 X2.068 Y14.901
G1 X12.034 Y4.935 B38.77
G1 X12.104 Y4.865 B38.77
G0 X11.903 Y4.98
G0 X16.058 Y12.175
G0 X16.175 Y12.108
G1 X13.382 Y14.901 B38.777
G1 X13.312 Y14.971 B38.777
G0 X13.312 Y14.762
G0 X14.901 Y14.762
G0 X14.901 Y14.901
G1 X-5.824 Y-5.824 B38.826
G1 X-5.894 Y-5.894 B38.826
G0 X-5.693 Y-5.777
G0 X17.052 Y13.872
G0 X17.377 Y13.865
;TYPE:WALL-INNER
G1 X0.677 Y-15.061 B38.882
G1 X-0.677 Y-15.061 B38.884
G1 X-17.377 Y13.865 B38.94
G1 X-16.779 Y15.062 B38.942
G1 X16.778 Y15.061 B38.998
G1 X17.377 Y13.865 B39.0
G0 X17.831 Y13.851
;TYPE:WALL-OUTER
G1 X0.908 Y-15.461 B39.057 F150.0
G1 X-0.908 Y-15.461 B39.06
G1 X-17.831 Y13.851 B39.116
G1 X-17.026 Y15.462 B39.119
G1 X17.026 Y15.461 B39.176
G1 X17.831 Y13.851 B39.179
G0 X17.731 Y13.678 F300.0
G0 X16.71 Y13.905
;MESH:NONMESH
G0 X16.71 Y13.905 Z2.8 F120.0
G0 X17.275 Y13.868 F300.0
;TIME_ELAPSED:8579.522960
;LAYER:25
;TYPE:WALL-INNER
;MESH:Tri_v2_small.stl
G1 X0.624 Y-14.971 B39.234
G1 X-0.624 Y-14.971 B39.236
G1 X-17.276 Y13.868 B39.292
G1 X-16.724 Y14.971 B39.294
G1 X16.724 Y14.97 B39.349
G1 X17.275 Y13.868 B39.352
G0 X17.729 Y13.854
;TYPE:WALL-OUTER
G1 X0.855 Y-15.371 B39.408 F150.0
G1 X-0.855 Y-15.371 B39.411
G1 X-17.73 Y13.854 B39.467
G1 X-16.971 Y15.371 B39.47
G1 X16.971 Y15.37 B39.526
G1 X17.729 Y13.854 B39.529
G0 X17.629 Y13.681 F300.0
G0 X16.843 Y13.882
;TYPE:SKIN
G1 X16.489 Y14.59 B39.53 F150.0
G1 X-16.49 Y14.591 B39.585
G1 X-16.845 Y13.882 B39.587
G1 X-0.405 Y-14.59 B39.641
G1 X0.405 Y-14.59 B39.643
G1 X16.843 Y13.882 B39.697
G0 X16.155 Y14.391 F300.0
G1 X16.572 Y13.974 B39.698 F150.0
G0 X16.423 Y13.557 F300.0
G1 X15.59 Y14.391 B39.7 F150.0
G0 X15.024 Y14.391 F300.0
G1 X16.216 Y13.198 B39.703 F150.0
G0 X16.009 Y12.84 F300.0
G1 X14.458 Y14.391 B39.707 F150.0
G0 X13.893 Y14.391 F300.0
G1 X15.802 Y12.481 B39.711 F150.0
G0 X15.595 Y12.123 F300.0
G1 X13.327 Y14.391 B39.717 F150.0
G0 X12.761 Y14.391 F300.0
G1 X15.388 Y11.764 B39.723 F150.0
G0 X15.181 Y11.405 F300.0
G1 X12.196 Y14.391 B39.73 F150.0
G0 X11.63 Y14.391 F300.0
G1 X14.974 Y11.047 B39.738 F150.0
G0 X14.767 Y10.688 F300.0
G1 X11.064 Y14.391 B39.747 F150.0
G0 X10.499 Y14.391 F300.0
G1 X14.56 Y10.33 B39.756 F150.0
G0 X14.352 Y9.971 F300.0
G1 X9.933 Y14.391 B39.767 F150.0
G0 X9.367 Y14.391 F300.0
G1 X14.146 Y9.612 B39.778 F150.0
G0 X13.939 Y9.253 F300.0
G1 X8.802 Y14.391 B39.79 F150.0
G0 X8.236 Y14.391 F300.0
G1 X13.732 Y8.895 B39.803 F150.0
G0 X13.524 Y8.536 F300.0
G1 X7.67 Y14.391 B39.817 F150.0
G0 X7.105 Y14.391 F300.0
G1 X13.317 Y8.178 B39.831 F150.0
G0 X13.11 Y7.819 F300.0
G1 X6.539 Y14.391 B39.847 F150.0
G0 X5.973 Y14.391 F300.0
G1 X12.903 Y7.46 B39.863 F150.0
G0 X12.696 Y7.102 F300.0
G1 X5.407 Y14.391 B39.88 F150.0
G0 X4.842 Y14.391 F300.0
G1 X12.489 Y6.743 B39.898 F150.0
G0 X12.282 Y6.385 F300.0
G1 X4.276 Y14.391 B39.917 F150.0
G0 X3.71 Y14.391 F300.0
G1 X12.075 Y6.026 B39.937 F150.0
G0 X11.868 Y5.667 F300.0
G1 X3.145 Y14.391 B39.957 F150.0
G0 X2.579 Y14.391 F300.0
G1 X11.661 Y5.308 B39.979 F150.0
G0 X11.454 Y4.95 F300.0
G1 X2.013 Y14.391 B40.001 F150.0
G0 X1.448 Y14.391 F300.0
G1 X11.247 Y4.591 B40.024 F150.0
G0 X11.04 Y4.233 F300.0
G1 X0.882 Y14.391 B40.048 F150.0
G0 X0.316 Y14.391 F300.0
G1 X10.832 Y3.874 B40.073 F150.0
G0 X10.626 Y3.515 F300.0
G1 X-0.248 Y14.391 B40.098 F150.0
